; generated by Slic3r 1.3.1-dev (Build 18ddd3a36dc69d81fb9b7440498bff9e1dde8b7e) on 2022-09-28 at 17:47:02

; external perimeters extrusion width = 0.44mm (2.90mm^3/s)
; perimeters extrusion width = 0.56mm (7.54mm^3/s)
; infill extrusion width = 0.50mm (8.93mm^3/s)
; solid infill extrusion width = 0.56mm (2.51mm^3/s)
; top infill extrusion width = 0.56mm (1.88mm^3/s)
; support material extrusion width = 0.44mm (0.00mm^3/s)

M107
G92 E0
M190 S65 ; set bed temperature and wait for it to be reached
M104 S225 ; set temperature
G28 ; home all axes
G1 Z5 F5000 ; lift nozzle

; Filament gcode

M109 S225 ; set temperature and wait for it to be reached
G21 ; set units to millimeters
G90 ; use absolute coordinates
M82 ; use absolute distances for extrusion
G92 E0
G1 Z0.400 F7800.000
G1 E-2.20000 F2400.00000
G92 E0
G1 X71.744 Y61.185 F7800.000
G1 E2.20000 F2400.00000
G1 F3600.000
G1 X73.021 Y59.674 E2.43497
G1 X73.453 Y59.274 E2.50489
G1 X74.544 Y58.356 E2.67423
G1 X75.827 Y57.486 E2.85834
G1 X77.093 Y56.809 E3.02877
G1 X79.090 Y55.846 E3.29217
G1 X82.627 Y55.038 E3.72302
G1 X117.284 Y55.179 E7.83911
G1 X119.795 Y55.588 E8.14130
G1 X121.082 Y56.138 E8.30754
G1 X123.153 Y57.244 E8.58630
G1 X123.872 Y57.677 E8.68598
G1 X124.701 Y58.236 E8.80470
G1 X125.904 Y59.228 E8.99000
G1 X128.953 Y62.276 E9.50200
G1 X130.019 Y63.592 E9.70311
G1 X156.985 Y105.016 E15.57345
G1 X157.830 Y106.722 E15.79950
G1 X158.172 Y107.690 E15.92147
G1 X158.614 Y109.822 E16.18010
G1 X158.681 Y110.782 E16.29438
G1 X158.570 Y112.809 E16.53543
G1 X158.376 Y113.875 E16.66408
G1 X156.991 Y117.151 E17.08651
G1 X156.713 Y117.539 E17.14324
G1 X156.089 Y118.319 E17.26190
G1 X154.993 Y119.485 E17.45188
G1 X154.326 Y120.110 E17.56052
G1 X132.953 Y137.985 E20.86959
G1 X130.673 Y139.330 E21.18396
G1 X127.642 Y140.506 E21.57002
G1 X126.001 Y140.952 E21.77207
G1 X103.417 Y144.610 E24.48913
G1 X101.837 Y144.833 E24.67871
G1 X100.789 Y144.913 E24.80353
G1 X99.533 Y144.927 E24.95269
G1 X98.312 Y144.849 E25.09799
G1 X96.604 Y144.608 E25.30284
G1 X72.917 Y140.868 E28.15085
G1 X70.497 Y140.083 E28.45304
G1 X69.025 Y139.122 E28.66178
G1 X45.716 Y120.014 E32.24139
G1 X44.990 Y119.341 E32.35903
G1 X44.166 Y118.478 E32.50066
G1 X42.718 Y116.386 E32.80285
G1 X41.916 Y113.107 E33.20384
G1 X41.868 Y111.237 E33.42600
G1 X41.908 Y108.992 E33.69267
G1 X42.351 Y106.486 E33.99486
G1 X43.239 Y104.674 E34.23451
G1 X71.711 Y61.235 E40.40302
G1 X72.341 Y61.576 F7800.000
G1 F3600.000
G1 X73.506 Y60.198 E40.61738
G1 X73.938 Y59.798 E40.68731
G1 X74.999 Y58.906 E40.85187
G1 X76.170 Y58.113 E41.01983
G1 X77.403 Y57.452 E41.18596
G1 X79.400 Y56.489 E41.44936
G1 X82.627 Y55.752 E41.84241
G1 X117.281 Y55.893 E45.95813
G1 X120.746 Y56.768 E46.38259
G1 X122.817 Y57.874 E46.66135
G1 X123.473 Y58.269 E46.75229
G1 X124.301 Y58.828 E46.87101
G1 X125.399 Y59.733 E47.04006
G1 X128.448 Y62.781 E47.55205
G1 X129.421 Y63.981 E47.73553
G1 X156.387 Y105.406 E53.60586
G1 X157.157 Y106.962 E53.81209
G1 X157.499 Y107.927 E53.93368
G1 X157.901 Y109.872 E54.16963
G1 X157.969 Y110.832 E54.28391
G1 X157.867 Y112.681 E54.50382
G1 X157.673 Y113.747 E54.63246
G1 X156.410 Y116.736 E55.01784
G1 X156.132 Y117.124 E55.07457
G1 X155.546 Y117.855 E55.18583
G1 X154.477 Y118.992 E55.37120
G1 X153.868 Y119.563 E55.47032
G1 X132.494 Y137.437 E58.77938
G1 X130.415 Y138.665 E59.06618
G1 X127.384 Y139.840 E59.45224
G1 X125.887 Y140.247 E59.63656
G1 X103.317 Y143.902 E62.35191
G1 X101.737 Y144.126 E62.54150
G1 X100.781 Y144.198 E62.65537
G1 X99.525 Y144.213 E62.80452
G1 X98.411 Y144.141 E62.93709
G1 X96.716 Y143.903 E63.14045
G1 X73.029 Y140.162 E65.98846
G1 X70.723 Y139.396 E66.27700
G1 X69.478 Y138.570 E66.45448
G1 X46.169 Y119.462 E70.03409
G1 X45.506 Y118.848 E70.14141
G1 X44.683 Y117.985 E70.28305
G1 X43.314 Y115.977 E70.57159
G1 X42.630 Y113.085 E70.92466
G1 X42.582 Y111.250 E71.14267
G1 X42.622 Y109.005 E71.40934
G1 X43.062 Y106.615 E71.69788
G1 X43.837 Y105.066 E71.90358
G1 X72.308 Y61.626 E78.07209
G1 X72.938 Y61.968 F7800.000
G1 F3600.000
G1 X73.992 Y60.722 E78.26584
G1 X74.424 Y60.322 E78.33577
G1 X75.454 Y59.456 E78.49557
G1 X76.512 Y58.739 E78.64738
G1 X77.713 Y58.096 E78.80919
G1 X79.711 Y57.132 E79.07259
G1 X82.627 Y56.466 E79.42786
G1 X117.278 Y56.607 E83.54320
G1 X120.410 Y57.398 E83.92686
G1 X122.480 Y58.504 E84.20562
G1 X123.073 Y58.861 E84.28781
G1 X123.902 Y59.420 E84.40653
G1 X124.894 Y60.238 E84.55932
G1 X127.943 Y63.286 E85.07132
G1 X128.822 Y64.371 E85.23715
G1 X155.788 Y105.795 E91.10749
G1 X156.485 Y107.202 E91.29389
G1 X156.825 Y108.164 E91.41510
G1 X157.189 Y109.922 E91.62836
G1 X157.256 Y110.882 E91.74264
G1 X157.165 Y112.553 E91.94141
G1 X156.971 Y113.619 E92.07006
G1 X155.829 Y116.320 E92.41839
G1 X155.551 Y116.709 E92.47512
G1 X155.003 Y117.391 E92.57897
G1 X153.960 Y118.499 E92.75974
G1 X153.409 Y119.015 E92.84932
G1 X132.036 Y136.889 E96.15839
G1 X130.157 Y137.999 E96.41761
G1 X127.126 Y139.174 E96.80367
G1 X125.772 Y139.542 E96.97028
G1 X103.218 Y143.195 E99.68391
G1 X101.637 Y143.419 E99.87349
G1 X100.773 Y143.484 E99.97642
G1 X99.517 Y143.498 E100.12557
G1 X98.510 Y143.434 E100.24539
G1 X96.827 Y143.197 E100.44728
G1 X73.140 Y139.457 E103.29528
G1 X70.955 Y138.710 E103.56951
G1 X69.931 Y138.017 E103.71637
G1 X46.622 Y118.910 E107.29598
G1 X46.023 Y118.354 E107.39298
G1 X45.199 Y117.492 E107.53462
G1 X43.915 Y115.573 E107.80884
G1 X43.344 Y113.062 E108.11462
G1 X43.296 Y111.262 E108.32848
G1 X43.336 Y109.017 E108.59515
G1 X43.774 Y106.750 E108.86938
G1 X44.434 Y105.457 E109.04177
G1 X72.905 Y62.018 E115.21028
G1 E113.01028 F2400.00000
G92 E0
G1 X78.574 Y66.370 F7800.000
G1 E2.20000 F2400.00000
G1 F3600.000
G1 X77.807 Y67.812 E2.39400
G1 X77.968 Y67.821 E2.41315
G1 X77.849 Y69.182 E2.57541
G1 X77.812 Y69.183 E2.57988
G1 X78.357 Y71.010 E2.80626
G1 X78.450 Y71.006 E2.81726
G1 X78.574 Y71.240 E2.84876
G1 X78.574 Y66.370 E3.42725
G1 X78.761 Y66.018 E3.47456
G1 X78.813 Y66.021 E3.48069
G1 X79.241 Y65.501 E3.56066
G1 X79.934 Y64.928 E3.66744
G1 X80.003 Y64.890 E3.67678
G1 X80.003 Y72.737 E4.60868
G1 X80.131 Y72.843 E4.62843
G1 X80.210 Y72.835 E4.63782
G1 X80.768 Y73.141 E4.71343
G1 X81.139 Y73.250 E4.75941
G1 X81.431 Y73.260 E4.79407
G1 X81.431 Y64.280 E5.86061
G1 X82.859 Y64.285 E6.03025
G1 X82.859 Y132.066 E14.08028
G1 X83.391 Y132.341 E14.15138
G1 X83.288 Y132.687 E14.19423
G1 X84.288 Y133.105 E14.32290
G1 X84.288 Y63.537 E22.58514
G1 X85.206 Y63.537 E22.69427
G1 X85.255 Y64.115 E22.76309
G1 X85.716 Y64.114 E22.81789
G1 X85.716 Y133.141 E31.01583
G1 X86.793 Y132.710 E31.15357
G1 X86.689 Y132.349 E31.19817
G1 X86.910 Y132.235 E31.22766
G1 X86.817 Y131.958 E31.26244
G1 X86.975 Y131.875 E31.28367
G1 X86.612 Y130.807 E31.41768
G1 X87.144 Y131.099 E31.48974
G1 X87.144 Y84.905 E36.97599
G1 X86.917 Y83.965 E37.09078
G1 X86.996 Y83.935 E37.10072
G1 X86.844 Y82.631 E37.25665
G1 X86.725 Y82.142 E37.31643
G1 X86.816 Y82.108 E37.32794
G1 X86.693 Y80.835 E37.47991
G1 X86.585 Y80.255 E37.54996
G1 X86.655 Y80.234 E37.55867
G1 X86.523 Y78.870 E37.72140
G1 X86.412 Y78.277 E37.79308
G1 X86.482 Y78.256 E37.80174
G1 X86.353 Y76.905 E37.96286
G1 X86.229 Y76.241 E38.04313
G1 X86.305 Y76.220 E38.05246
G1 X86.180 Y74.908 E38.20901
G1 X86.058 Y74.096 E38.30647
G1 X86.104 Y74.084 E38.31218
G1 X86.045 Y73.382 E38.39586
G1 X87.144 Y73.418 E38.52652
G1 X87.144 Y64.112 E39.63173
G1 X88.573 Y64.109 E39.80136
G1 X88.573 Y66.824 E40.12381
G1 X88.990 Y66.836 E40.17336
G1 X89.132 Y68.228 E40.33950
G1 X88.573 Y68.360 E40.40771
G1 X88.573 Y73.464 E41.01393
G1 X88.911 Y73.476 E41.05411
G1 X90.001 Y73.474 E41.18358
G1 X90.001 Y65.055 E42.18344
G1 X91.429 Y65.096 E42.35314
G1 X91.429 Y73.471 E43.34788
G1 X92.857 Y73.469 E43.51751
G1 X92.857 Y65.136 E44.50713
G1 X94.286 Y65.177 E44.67683
G1 X94.286 Y73.467 E45.66133
G1 X95.714 Y73.464 E45.83097
G1 X95.714 Y65.218 E46.81035
G1 X97.024 Y65.255 E46.96592
G1 X97.032 Y64.594 E47.04443
G1 X97.142 Y64.594 E47.05750
G1 X97.142 Y73.462 E48.11070
G1 X98.571 Y73.460 E48.28033
G1 X98.571 Y64.592 E49.33352
G1 X99.999 Y64.589 E49.50315
G1 X99.999 Y73.457 E50.55632
G1 X101.427 Y73.455 E50.72596
G1 X101.427 Y64.587 E51.77912
G1 X102.856 Y64.585 E51.94875
G1 X102.856 Y73.452 E53.00190
G1 X104.284 Y73.450 E53.17154
G1 X104.284 Y64.583 E54.22468
G1 X105.712 Y64.580 E54.39431
G1 X105.712 Y73.448 E55.44744
G1 X107.141 Y73.445 E55.61707
G1 X107.141 Y64.578 E56.67019
G1 X108.569 Y64.576 E56.83983
G1 X108.569 Y73.435 E57.89196
G1 X109.997 Y73.401 E58.06164
G1 X109.997 Y64.574 E59.11005
G1 X111.426 Y64.571 E59.27968
G1 X111.426 Y73.368 E60.32437
G1 X112.854 Y73.334 E60.49406
G1 X112.854 Y64.569 E61.53503
G1 X114.282 Y64.567 E61.70466
G1 X114.282 Y66.831 E61.97359
G1 X115.711 Y66.933 E62.14366
G1 X115.711 Y63.679 E62.53020
G1 X116.910 Y63.679 E62.67266
G1 X116.939 Y64.185 E62.73286
G1 X117.139 Y64.187 E62.75666
G1 X117.139 Y131.885 E70.79673
G1 X117.691 Y131.422 E70.88224
G1 X118.567 Y131.849 E70.99803
G1 X118.567 Y127.838 E71.47444
G1 X118.865 Y127.712 E71.51281
G1 X118.846 Y127.870 E71.53165
G1 X119.194 Y127.722 E71.57654
G1 X119.146 Y128.123 E71.62446
G1 X119.996 Y127.464 E71.75211
G1 X119.996 Y131.840 E72.27179
G1 X120.190 Y131.935 E72.29746
G1 X120.145 Y131.737 E72.32155
G1 X120.587 Y131.952 E72.37993
G1 X120.442 Y131.306 E72.45861
G1 X121.424 Y131.671 E72.58300
G1 X121.424 Y127.838 E73.03821
G1 X122.457 Y127.534 E73.16615
G1 X122.377 Y127.699 E73.18794
G1 X122.852 Y127.560 E73.24677
G1 X122.852 Y132.024 E73.77701
G1 X123.401 Y132.228 E73.84661
G1 X123.269 Y132.002 E73.87780
G1 X123.884 Y132.231 E73.95580
G1 X123.474 Y131.531 E74.05212
G1 X124.113 Y131.658 E74.12950
G1 X124.042 Y131.542 E74.14574
G1 X124.280 Y131.589 E74.17461
G1 X124.280 Y128.184 E74.57899
G1 X125.283 Y128.094 E74.69859
G1 X125.283 Y128.741 E74.77542
G1 X125.513 Y129.034 E74.81965
G1 X125.705 Y129.382 E74.86685
G1 X125.709 Y131.441 E75.11133
G1 E72.91133 F2400.00000
G92 E0
G1 X122.852 Y132.202 F7800.000
G1 E2.20000 F2400.00000
G1 F3600.000
G1 X122.917 Y132.226 E2.20824
G1 X122.852 Y132.115 E2.22352
G1 X122.852 Y132.202 E2.23384
G1 E0.03384 F2400.00000
G92 E0
G1 X115.711 Y132.945 F7800.000
G1 E2.20000 F2400.00000
G1 F3600.000
G1 X115.711 Y68.812 E9.81677
G1 X115.994 Y68.555 E9.86216
G1 X116.365 Y68.555 E9.90623
G1 X116.837 Y66.937 E10.10642
G1 X115.711 Y66.933 E10.24020
G1 X114.282 Y66.913 F7800.000
G1 F3600.000
G1 X114.282 Y132.957 E18.08393
G1 E15.88393 F2400.00000
G92 E0
G1 X112.854 Y131.478 F7800.000
G1 E2.20000 F2400.00000
G1 F3600.000
G1 X112.854 Y85.260 E7.68918
G1 X112.480 Y85.739 E7.76136
G1 X112.331 Y85.973 E7.79428
G1 X111.568 Y87.299 E7.97600
G1 X111.723 Y87.402 E7.99813
G1 X111.426 Y88.108 E8.08912
G1 X111.426 Y94.091 E8.79970
G1 X111.098 Y93.648 E8.86524
G1 X111.056 Y93.536 E8.87941
G1 X110.862 Y93.173 E8.92824
G1 X110.640 Y93.131 E8.95502
G1 X110.835 Y91.332 E9.17000
G1 X110.702 Y91.293 E9.18647
G1 X111.078 Y89.372 E9.41900
G1 X110.964 Y89.318 E9.43394
G1 X111.426 Y88.108 E9.58768
G1 E7.38768 F2400.00000
G92 E0
G1 X118.567 Y85.698 F7800.000
G1 E2.20000 F2400.00000
G1 F3600.000
G1 X119.531 Y87.318 E2.42400
G1 X119.371 Y87.428 E2.44706
G1 X119.579 Y87.889 E2.50723
G1 X119.996 Y88.979 E2.64575
G1 X119.996 Y94.192 E3.26494
G1 E1.06494 F2400.00000
G92 E0
G1 X118.567 Y85.698 F7800.000
G1 E2.20000 F2400.00000
G1 F3600.000
G1 X118.567 Y116.778 E5.89126
G1 X119.845 Y116.472 E6.04734
G1 X119.900 Y116.688 E6.07383
G1 X119.996 Y116.670 E6.08536
G1 X119.996 Y101.459 E7.89187
G1 X120.222 Y101.523 E7.91987
G1 X120.284 Y101.345 E7.94223
G1 X121.424 Y101.667 E8.08290
G1 X121.424 Y116.412 E9.83409
G1 X121.974 Y116.280 E9.90127
G1 X122.029 Y116.496 E9.92772
G1 X122.852 Y116.336 E10.02733
G1 X122.852 Y101.876 E11.74476
G1 X124.280 Y102.279 E11.92104
G1 X124.280 Y116.281 E13.58390
G1 X125.159 Y116.110 E13.69017
G1 X125.159 Y116.155 E13.69545
G1 X125.709 Y116.023 E13.76261
G1 X125.709 Y102.488 E15.37009
G1 X126.620 Y102.746 E15.48260
G1 X126.679 Y102.575 E15.50408
G1 X127.137 Y102.701 E15.56051
G1 X127.137 Y115.948 E17.13377
G1 X127.644 Y115.849 E17.19505
G1 X127.650 Y115.876 E17.19837
G1 X128.411 Y115.694 E17.29123
G1 X128.463 Y115.888 E17.31504
G1 X128.565 Y115.870 E17.32742
G1 X128.565 Y103.100 E18.84404
G1 X128.762 Y103.156 E18.86829
G1 X128.820 Y102.986 E18.88966
G1 X129.994 Y103.309 E19.03423
G1 X129.994 Y115.615 E20.49570
G1 X130.566 Y115.503 E20.56493
G1 X130.616 Y115.690 E20.58787
G1 X131.422 Y115.551 E20.68502
G1 X131.422 Y103.524 E22.11347
G1 X132.850 Y103.921 E22.28955
G1 X132.850 Y115.478 E23.66213
G1 X134.279 Y115.226 E23.83439
G1 X134.279 Y104.132 E25.15198
G1 X135.176 Y104.383 E25.26260
G1 X135.233 Y104.215 E25.28362
G1 X135.707 Y104.346 E25.34208
G1 X135.707 Y115.159 E26.62625
G1 X137.027 Y114.914 E26.78568
G1 X137.076 Y115.096 E26.80812
G1 X137.135 Y115.086 E26.81532
G1 X137.135 Y104.740 E28.04407
G1 X137.315 Y104.790 E28.06622
G1 X137.371 Y104.626 E28.08678
G1 X138.564 Y104.954 E28.23374
G1 X138.564 Y114.855 E29.40958
G1 X138.759 Y114.808 E29.43347
G1 X139.992 Y114.739 E29.58010
G1 X139.992 Y105.169 E30.71671
G1 X141.265 Y105.520 E30.87358
G1 X141.420 Y105.544 E30.89219
G1 X141.420 Y114.487 E31.95432
G1 X141.783 Y114.402 E31.99852
G1 X142.849 Y114.358 E32.12522
G1 X142.849 Y105.777 E33.14438
G1 X143.870 Y106.060 E33.27019
G1 X144.277 Y106.215 E33.32198
G1 X144.277 Y114.121 E34.26090
G1 X144.553 Y114.053 E34.29470
G1 X144.869 Y113.937 E34.33458
G1 X145.705 Y113.928 E34.43395
G1 X145.705 Y106.417 E35.32598
G1 X145.926 Y106.446 E35.35245
G1 X146.077 Y106.488 E35.37110
G1 X146.895 Y106.820 E35.47592
G1 X147.004 Y106.914 E35.49299
G1 X146.975 Y106.951 E35.49857
G1 X147.134 Y107.066 E35.52184
G1 X147.134 Y113.698 E36.30953
G1 X147.276 Y113.650 E36.32741
G1 X147.841 Y113.386 E36.40146
G1 X148.211 Y113.175 E36.45208
G1 X148.562 Y113.297 E36.49618
G1 X148.562 Y108.216 E37.09968
G1 X148.687 Y108.330 E37.11983
G1 X148.689 Y108.363 E37.12377
G1 X149.343 Y108.926 E37.22621
G1 X149.842 Y109.626 E37.32828
G1 X149.990 Y110.044 E37.38102
G1 X149.990 Y112.328 E37.65231
G1 E35.45231 F2400.00000
G92 E0
G1 X118.567 Y124.948 F7800.000
G1 E2.20000 F2400.00000
G1 F3600.000
G1 X118.897 Y124.112 E2.30681
G1 X118.896 Y122.904 E2.45025
G1 X118.711 Y122.860 E2.47280
G1 X118.707 Y120.914 E2.70389
G1 X118.567 Y120.949 E2.72104
G1 X118.567 Y124.948 E3.19605
G1 X111.426 Y124.524 F7800.000
G1 F3600.000
G1 X111.426 Y123.076 E3.36796
G1 X111.528 Y123.051 E3.38053
G1 X111.520 Y119.883 E3.75681
G1 X111.734 Y120.085 E3.79183
G1 X111.724 Y117.172 E4.13786
G1 X111.426 Y117.230 E4.17395
G1 X111.426 Y99.822 E6.24143
G1 X109.997 Y99.425 E6.41750
G1 X109.997 Y117.511 E8.56554
G1 X109.181 Y117.672 E8.66438
G1 X109.133 Y117.471 E8.68893
G1 X108.569 Y117.617 E8.75807
G1 X108.569 Y99.215 E10.94351
G1 X107.520 Y98.923 E11.07287
G1 X107.453 Y99.111 E11.09646
G1 X107.141 Y99.014 E11.13537
G1 X107.141 Y117.844 E13.37172
G1 X107.047 Y117.862 E13.38300
G1 X107.000 Y117.663 E13.40720
G1 X106.307 Y117.843 E13.49231
G1 X106.293 Y117.790 E13.49874
G1 X105.712 Y117.902 E13.56902
G1 X105.712 Y98.608 E15.86044
G1 X105.403 Y98.522 E15.89861
G1 X105.342 Y98.693 E15.92012
G1 X104.284 Y98.399 E16.05060
G1 X104.284 Y118.007 E18.37935
G1 X103.101 Y118.312 E18.52447
G1 X103.100 Y120.127 E18.73997
G1 X103.101 Y120.821 E18.82245
G1 X103.298 Y120.826 E18.84578
G1 X103.304 Y123.523 E19.16610
G1 X103.181 Y124.146 E19.24145
G1 X103.402 Y124.172 E19.26787
G1 X103.449 Y125.830 E19.46490
G1 X103.446 Y126.309 E19.52178
G1 X103.567 Y126.333 E19.53640
G1 X103.547 Y128.071 E19.74283
G1 X104.284 Y128.112 E19.83048
G1 E17.63048 F2400.00000
G92 E0
G1 X104.284 Y134.391 F7800.000
G1 E2.20000 F2400.00000
G1 F3600.000
G1 X104.284 Y134.366 E2.20304
G1 X102.856 Y134.104 E2.37550
G1 X102.856 Y135.171 E2.50227
G1 X101.856 Y135.717 E2.63760
G1 X101.896 Y136.241 E2.69997
G1 X101.427 Y136.307 E2.75618
G1 E0.55618 F2400.00000
G92 E0
G1 X95.714 Y131.662 F7800.000
G1 E2.20000 F2400.00000
G1 F3600.000
G1 X95.714 Y129.197 E2.49278
G1 X95.486 Y128.843 E2.54274
G1 X95.205 Y128.636 E2.58426
G1 X94.915 Y128.508 E2.62191
G1 X94.817 Y128.180 E2.66252
G1 X94.286 Y128.226 E2.72589
G1 X94.286 Y131.850 E3.15629
