; generated by Slic3r 1.3.1-dev (Build 18ddd3a36dc69d81fb9b7440498bff9e1dde8b7e) on 2022-09-29 at 15:51:18

; external perimeters extrusion width = 0.44mm (1.84mm^3/s)
; perimeters extrusion width = 0.56mm (4.75mm^3/s)
; infill extrusion width = 0.50mm (5.61mm^3/s)
; solid infill extrusion width = 0.56mm (1.58mm^3/s)
; top infill extrusion width = 0.56mm (1.19mm^3/s)
; support material extrusion width = 0.44mm (0.00mm^3/s)

M107
G92 E0
M190 S65 ; set bed temperature and wait for it to be reached
M104 S225 ; set temperature
G28 ; home all axes
G1 Z5 F5000 ; lift nozzle

; Filament gcode

M109 S225 ; set temperature and wait for it to be reached
G21 ; set units to millimeters
G90 ; use absolute coordinates
M82 ; use absolute distances for extrusion
G92 E0
G1 Z0.400 F3600.000
G1 E-2.00000 F2400.00000
G92 E0
G1 X26.435 Y77.869 F3600.000
G1 E2.00000 F2400.00000
G1 F1800.000
G1 X28.081 Y77.354 E2.20476
G1 X56.050 Y72.438 E5.57751
G1 X69.011 Y70.964 E7.12665
G1 X99.534 Y67.615 E10.77348
G1 X114.512 Y66.492 E12.55743
G1 X120.470 Y66.387 E13.26516
G1 X121.521 Y66.453 E13.39012
G1 X128.102 Y67.390 E14.17960
G1 X129.970 Y67.738 E14.40533
G1 X131.165 Y68.082 E14.55296
G1 X161.051 Y79.790 E18.36503
G1 X161.582 Y80.025 E18.43405
G1 X165.340 Y81.886 E18.93209
G1 X166.752 Y82.824 E19.13344
G1 X173.249 Y88.444 E20.15357
G1 X174.099 Y89.328 E20.29927
G1 X175.524 Y91.108 E20.57007
G1 X176.310 Y92.349 E20.74461
G1 X177.281 Y94.330 E21.00659
G1 X177.542 Y94.939 E21.08526
G1 X179.125 Y99.187 E21.62371
G1 X179.515 Y100.872 E21.82907
G1 X180.885 Y114.743 E23.48451
G1 X180.909 Y115.745 E23.60347
G1 X180.605 Y121.703 E24.31207
G1 X180.093 Y123.955 E24.58629
G1 X178.849 Y125.899 E24.86052
G1 X177.632 Y126.943 E25.05086
G1 X176.139 Y127.941 E25.26417
G1 X174.904 Y128.593 E25.43001
G1 X173.206 Y129.273 E25.64721
G1 X171.196 Y129.737 E25.89223
G1 X39.039 Y139.342 E41.62931
G1 X38.307 Y139.355 E41.71621
G1 X35.715 Y139.260 E42.02427
G1 X33.929 Y138.950 E42.23956
G1 X30.940 Y138.002 E42.61204
G1 X29.566 Y137.389 E42.79068
G1 X28.809 Y136.937 E42.89540
G1 X28.269 Y136.588 E42.97171
G1 X26.297 Y134.629 E43.30187
G1 X25.796 Y133.864 E43.41046
G1 X25.072 Y132.396 E43.60482
G1 X23.650 Y128.323 E44.11721
G1 X23.331 Y126.970 E44.28231
G1 X18.710 Y91.191 E48.56694
G1 X18.696 Y89.589 E48.75726
G1 X18.967 Y87.155 E49.04809
G1 X20.155 Y84.025 E49.44565
G1 X21.035 Y82.778 E49.62695
G1 X21.810 Y81.865 E49.76914
G1 X24.536 Y79.182 E50.22344
G1 X26.386 Y77.903 E50.49054
G1 E48.49054 F2400.00000
G92 E0
G1 X27.156 Y86.525 F3600.000
G1 E2.00000 F2400.00000
G1 F1800.000
G1 X27.156 Y93.922 E2.87850
G1 X28.584 Y95.034 E3.09345
G1 X28.584 Y85.119 E4.27096
G1 X29.407 Y84.309 E4.40812
G1 X30.012 Y84.248 E4.48038
G1 X30.012 Y95.952 E5.87048
G1 X31.441 Y96.771 E6.06598
G1 X31.441 Y84.103 E7.57048
G1 X32.442 Y84.001 E7.69004
G1 X32.869 Y84.058 E7.74117
G1 X32.869 Y96.421 E9.20951
G1 X34.297 Y95.994 E9.38659
G1 X34.297 Y84.248 E10.78159
G1 X35.726 Y84.437 E10.95272
G1 X35.726 Y95.566 E12.27438
G1 X37.154 Y95.138 E12.45146
G1 X37.154 Y84.568 E13.70685
G1 X38.582 Y84.652 E13.87677
G1 X38.582 Y94.710 E15.07138
G1 X40.011 Y94.297 E15.24798
G1 X40.011 Y84.621 E16.39719
G1 X41.439 Y84.239 E16.57277
G1 X41.439 Y93.964 E17.72776
G1 X42.867 Y93.632 E17.90193
G1 X42.867 Y83.858 E19.06270
G1 X44.296 Y83.477 E19.23827
G1 X44.296 Y93.622 E20.44310
G1 X45.724 Y93.849 E20.61488
G1 X45.724 Y83.064 E21.89579
G1 X47.152 Y82.630 E22.07309
G1 X47.152 Y94.077 E23.43262
G1 X48.581 Y94.305 E23.60440
G1 X48.581 Y82.158 E25.04699
G1 X50.009 Y81.634 E25.22767
G1 X50.009 Y94.494 E26.75492
G1 X51.437 Y94.570 E26.92480
G1 X51.437 Y81.110 E28.52327
G1 X52.866 Y80.587 E28.70395
G1 X52.866 Y94.567 E30.36432
G1 X54.294 Y94.545 E30.53397
G1 X54.294 Y80.063 E32.25390
G1 X54.949 Y79.823 E32.33684
G1 X55.722 Y79.727 E32.42930
G1 X55.722 Y94.522 E34.18653
G1 X57.150 Y94.500 E34.35618
G1 X57.150 Y79.433 E36.14562
G1 X58.579 Y79.287 E36.31613
G1 X58.579 Y94.478 E38.12022
G1 X60.007 Y94.426 E38.28997
G1 X60.007 Y79.142 E40.10516
G1 X61.435 Y78.996 E40.27568
G1 X61.435 Y94.364 E42.10080
G1 X62.085 Y94.335 E42.17800
G1 X61.677 Y95.578 E42.33334
G1 X62.410 Y100.294 E42.90012
G1 X62.864 Y102.663 E43.18661
G1 X62.864 Y78.851 E46.01472
G1 X64.292 Y78.705 E46.18523
G1 X64.292 Y124.200 E51.58851
G1 X64.695 Y124.072 E51.63871
G1 X65.720 Y123.641 E51.77083
G1 X65.720 Y78.559 E57.12495
G1 X67.149 Y78.414 E57.29547
G1 X67.149 Y123.041 E62.59563
G1 X68.577 Y122.441 E62.77962
G1 X68.577 Y78.268 E68.02582
G1 X69.065 Y78.218 E68.08404
G1 X69.807 Y77.993 E68.17616
G1 X70.005 Y77.983 E68.19977
G1 X70.005 Y121.841 E73.40857
G1 X71.434 Y121.241 E73.59256
G1 X71.434 Y77.915 E78.73815
G1 X72.369 Y77.871 E78.84937
G1 X72.862 Y77.922 E78.90823
G1 X72.862 Y120.695 E83.98818
G1 X74.290 Y120.281 E84.16480
G1 X74.290 Y78.071 E89.17785
G1 X75.719 Y78.221 E89.34841
G1 X75.719 Y119.668 E94.27091
G1 X77.147 Y118.816 E94.46842
G1 X77.147 Y78.445 E99.26309
G1 X78.575 Y78.702 E99.43544
G1 X78.575 Y117.965 E104.09847
G1 X80.004 Y117.113 E104.29598
G1 X80.004 Y78.959 E108.82737
G1 X81.432 Y79.215 E108.99972
G1 X81.432 Y116.261 E113.39948
G1 X82.860 Y115.409 E113.59699
G1 X82.860 Y79.472 E117.86511
G1 X84.289 Y79.729 E118.03746
G1 X84.289 Y114.558 E122.17395
G1 X85.029 Y114.116 E122.27629
G1 X85.717 Y114.269 E122.36002
G1 X85.717 Y80.401 E126.38238
G1 X86.309 Y80.700 E126.46115
G1 X87.145 Y81.452 E126.59472
G1 X87.145 Y114.586 E130.52993
G1 X87.384 Y114.639 E130.55893
G1 X88.214 Y114.237 E130.66844
G1 X88.573 Y113.920 E130.72541
G1 X88.573 Y82.540 E134.45222
G1 X89.545 Y83.281 E134.59734
G1 X90.002 Y83.486 E134.65679
G1 X90.002 Y112.114 E138.05677
G1 X91.430 Y110.206 E138.33982
G1 X91.430 Y81.376 E141.76389
G1 X92.155 Y78.677 E142.09577
G1 X92.789 Y77.163 E142.29068
G1 X92.858 Y77.139 E142.29946
G1 X92.858 Y109.693 E146.16575
G1 X93.412 Y109.701 E146.23144
G1 X93.593 Y110.188 E146.29320
G1 X94.287 Y111.856 E146.50773
G1 X94.287 Y76.605 E150.69435
G1 X95.715 Y76.018 E150.87775
G1 X95.715 Y114.749 E155.47769
G1 X96.024 Y115.005 E155.52526
G1 X97.143 Y115.451 E155.66845
G1 X97.143 Y75.431 E160.42150
G1 X98.572 Y74.844 E160.60490
G1 X98.572 Y115.970 E165.48927
G1 X100.000 Y116.468 E165.66891
G1 X100.000 Y74.676 E170.63234
G1 X100.244 Y74.651 E170.66152
G1 X101.428 Y74.648 E170.80213
G1 X101.428 Y116.966 E175.82799
G1 X101.604 Y117.027 E175.85008
G1 X102.857 Y116.712 E176.00348
G1 X102.857 Y74.700 E180.99303
G1 X104.285 Y74.937 E181.16499
G1 X104.285 Y116.353 E186.08378
G1 X105.108 Y116.147 E186.18456
G1 X105.713 Y115.971 E186.25940
G1 X105.713 Y75.174 E191.10467
G1 X107.142 Y74.783 E191.28056
G1 X107.142 Y115.558 E196.12325
G1 X108.570 Y115.145 E196.29984
G1 X108.570 Y74.415 E201.13706
G1 X109.998 Y74.223 E201.30823
G1 X109.998 Y115.074 E206.15993
G1 X111.427 Y115.128 E206.32969
G1 X111.427 Y74.031 E211.21065
G1 X112.855 Y73.838 E211.38182
G1 X112.855 Y115.182 E216.29205
G1 X114.283 Y115.236 E216.46180
G1 X114.283 Y73.646 E221.40130
G1 X115.040 Y73.544 E221.49201
G1 X115.712 Y73.533 E221.57175
G1 X115.711 Y115.189 E226.51900
G1 X117.140 Y115.131 E226.68878
G1 X117.140 Y73.511 E231.63173
G1 X118.568 Y73.489 E231.80139
G1 X118.568 Y115.072 E236.74004
G1 X119.872 Y115.019 E236.89506
G1 X119.996 Y114.995 E236.91008
G1 X119.996 Y73.467 E241.84220
G1 X120.538 Y73.458 E241.90649
G1 X121.425 Y73.658 E242.01447
G1 X121.425 Y114.720 E246.89122
G1 X122.119 Y114.586 E246.97519
G1 X122.853 Y114.388 E247.06549
G1 X122.853 Y73.979 E251.86471
G1 X124.281 Y74.300 E252.03857
G1 X124.281 Y114.003 E256.75387
G1 X125.608 Y113.644 E256.91711
G1 X125.710 Y113.600 E256.93024
G1 X125.710 Y74.593 E261.56299
G1 X127.138 Y74.864 E261.73567
G1 X127.138 Y112.977 E266.26220
G1 X128.566 Y112.355 E266.44725
G1 X128.567 Y74.669 E270.92300
G1 X129.995 Y75.748 E271.13551
G1 X129.995 Y111.732 E275.40918
G1 X131.031 Y111.280 E275.54339
G1 X131.423 Y110.906 E275.60780
G1 X131.423 Y76.827 E279.65521
G1 X132.570 Y77.694 E279.82600
G1 X132.347 Y78.036 E279.87450
G1 X132.851 Y78.317 E279.94303
G1 X132.851 Y109.544 E283.65174
G1 X134.280 Y108.182 E283.88614
G1 X134.280 Y79.113 E287.33858
G1 X135.708 Y79.908 E287.53277
G1 X135.708 Y106.678 E290.71208
G1 X136.739 Y105.484 E290.89944
G1 X137.136 Y105.183 E290.95867
G1 X137.136 Y80.704 E293.86588
G1 X138.565 Y81.500 E294.06006
G1 X138.565 Y104.100 E296.74424
G1 X139.993 Y103.006 E296.95797
G1 X139.993 Y82.106 E299.44016
G1 X141.421 Y82.412 E299.61365
G1 X141.421 Y101.852 E301.92253
G1 X142.331 Y101.118 E302.06145
G1 X142.850 Y100.820 E302.13244
G1 X142.850 Y82.718 E304.28232
G1 X144.278 Y83.024 E304.45580
G1 X144.278 Y99.998 E306.47180
G1 X145.706 Y99.291 E306.66111
G1 X145.706 Y83.571 E308.52811
G1 X147.032 Y84.100 E308.69764
G1 X147.134 Y84.157 E308.71160
G1 X147.134 Y98.599 E310.42673
G1 X147.195 Y98.569 E310.43477
G1 X148.563 Y98.375 E310.59880
G1 X148.563 Y84.841 E312.20616
G1 X149.991 Y84.764 E312.37604
G1 X149.991 Y98.171 E313.96837
G1 X150.227 Y98.138 E313.99670
G1 X151.419 Y97.816 E314.14335
G1 X151.419 Y84.864 E315.68158
G1 X152.848 Y85.171 E315.85508
G1 X152.848 Y97.431 E317.31115
G1 X153.005 Y97.389 E317.33051
G1 X154.276 Y98.085 E317.50262
G1 X154.276 Y85.478 E318.99991
G1 X155.704 Y85.784 E319.17341
G1 X155.704 Y98.661 E320.70274
G1 X157.133 Y99.210 E320.88445
G1 X157.133 Y86.091 E322.44249
G1 X158.483 Y86.381 E322.60657
G1 X158.561 Y86.419 E322.61684
G1 X158.561 Y99.758 E324.20100
G1 X159.431 Y100.092 E324.31162
G1 X159.989 Y100.885 E324.42684
G1 X159.989 Y87.127 E326.06079
G1 X161.418 Y87.834 E326.25009
G1 X161.418 Y102.922 E328.04203
G1 X162.390 Y105.324 E328.34977
G1 X162.846 Y106.917 E328.54648
G1 X162.846 Y88.795 E330.69867
G1 X164.274 Y90.031 E330.92295
G1 X164.274 Y114.407 E333.81797
G1 X165.164 Y118.258 E334.28738
G1 X165.703 Y118.743 E334.37351
G1 X165.703 Y91.266 E337.63683
G1 X167.131 Y92.502 E337.86112
G1 X167.131 Y120.030 E341.13058
G1 X168.076 Y120.882 E341.28168
G1 X167.912 Y121.176 E341.32161
G1 X168.559 Y121.759 E341.42502
G1 X168.559 Y93.737 E344.75302
G1 X169.988 Y95.516 E345.02397
G1 X169.988 Y122.458 E348.22371
G1 X170.691 Y122.663 E348.31072
G1 X171.416 Y122.372 E348.40347
G1 X171.416 Y98.749 E351.20905
G1 X172.483 Y101.612 E351.57191
G1 X172.844 Y105.392 E352.02287
G1 X172.844 Y121.541 E353.94075
G1 E351.94075 F2400.00000
G92 E0
G1 X62.864 Y124.637 F3600.000
G1 E2.00000 F2400.00000
G1 F1800.000
G1 X62.864 Y102.988 E4.57114
G1 X61.435 Y107.063 E5.08402
G1 X61.435 Y124.882 E7.20027
G1 X60.007 Y125.127 E7.37239
G1 X60.007 Y109.767 E9.19660
G1 X58.579 Y110.260 E9.37606
G1 X58.579 Y125.362 E11.16962
G1 X57.150 Y125.591 E11.34142
G1 X57.150 Y110.977 E13.07697
G1 X55.722 Y111.707 E13.26743
G1 X55.722 Y125.819 E14.94352
G1 X54.294 Y126.048 E15.11531
G1 X54.294 Y112.436 E16.73195
G1 X52.866 Y113.165 E16.92241
G1 X52.866 Y126.276 E18.47958
G1 X51.437 Y126.505 E18.65137
G1 X51.437 Y113.898 E20.14861
G1 X50.009 Y114.653 E20.34048
G1 X50.009 Y126.733 E21.77522
G1 X48.581 Y126.943 E21.94667
G1 X48.581 Y115.591 E23.29483
G1 X47.152 Y116.574 E23.50070
G1 X47.152 Y127.151 E24.75695
G1 X46.123 Y127.301 E24.88043
G1 X45.724 Y127.568 E24.93749
G1 X45.724 Y117.556 E26.12661
G1 X44.941 Y118.094 E26.23940
G1 X44.296 Y118.207 E26.31726
G1 X44.296 Y128.522 E27.54235
G1 X42.867 Y129.454 E27.74489
G1 X42.867 Y118.457 E29.05097
G1 X41.439 Y118.707 E29.22318
G1 X41.439 Y130.370 E30.60835
G1 X40.011 Y131.286 E30.80987
G1 X40.011 Y118.957 E32.27415
G1 X38.582 Y119.206 E32.44636
G1 X38.582 Y132.202 E33.98973
G1 X38.453 Y132.284 E34.00793
G1 X37.154 Y132.237 E34.16235
G1 X37.154 Y119.478 E35.67771
G1 X35.726 Y119.885 E35.85410
G1 X35.726 Y132.102 E37.30502
G1 X34.297 Y131.648 E37.48299
G1 X34.297 Y120.292 E38.83169
G1 X33.608 Y120.489 E38.91680
G1 X32.869 Y121.790 E39.09451
G1 X32.869 Y131.128 E40.20354
G1 X32.170 Y130.689 E40.30158
G1 X31.734 Y130.025 E40.39599
G1 X31.441 Y129.185 E40.50165
G1 X31.441 Y124.301 E41.08166
M104 S220 ; set temperature
M140 S60 ; set bed temperature
G1 Z0.700 F3600.000
G1 X33.121 Y121.798 F3600.000
G1 F4800.000
G1 X33.121 Y131.018 E41.51362
G1 X33.208 Y131.069 E41.51838
G1 X36.028 Y131.964 E41.65700
G1 X36.028 Y120.030 E42.21611
G1 X37.397 Y119.640 E42.28280
G1 X38.936 Y119.370 E42.35599
G1 X38.936 Y131.711 E42.93412
G1 X41.844 Y129.846 E43.09595
G1 X41.844 Y118.862 E43.61056
G1 X44.752 Y118.353 E43.74886
G1 X44.752 Y127.950 E44.19847
G1 X46.042 Y127.088 E44.27114
G1 X47.660 Y126.852 E44.34774
G1 X47.660 Y116.495 E44.83299
G1 X49.850 Y114.989 E44.95753
G1 X50.567 Y114.609 E44.99555
G1 X50.567 Y126.419 E45.54881
G1 X53.475 Y125.953 E45.68677
G1 X53.475 Y113.103 E46.28878
G1 X56.383 Y111.619 E46.44174
G1 X56.383 Y125.488 E47.09150
G1 X59.291 Y125.023 E47.22947
G1 X59.291 Y110.250 E47.92157
G1 X60.781 Y109.736 E47.99540
G1 X61.656 Y109.333 E48.04053
G1 X61.494 Y107.570 E48.12351
G1 X62.199 Y105.558 E48.22336
G1 X62.199 Y124.525 E49.11195
G1 X62.947 Y124.397 E49.14751
G1 X64.618 Y123.863 E49.22969
G1 X65.106 Y123.658 E49.25452
G1 X65.106 Y78.846 E51.35394
G1 X68.014 Y78.549 E51.49087
G1 X68.014 Y122.436 E53.54695
G1 X70.922 Y121.215 E53.69471
G1 X70.922 Y78.162 E55.71169
G1 X72.363 Y78.094 E55.77926
G1 X73.830 Y78.247 E55.84837
G1 X73.830 Y120.188 E57.81328
G1 X75.028 Y119.820 E57.87202
G1 X76.738 Y118.801 E57.96525
G1 X76.738 Y78.598 E59.84876
G1 X79.645 Y79.120 E59.98717
G1 X79.645 Y117.067 E61.76498
G1 X82.553 Y115.333 E61.92358
G1 X82.553 Y79.643 E63.59567
G1 X84.366 Y79.969 E63.68198
G1 X85.461 Y80.521 E63.73942
G1 X85.461 Y113.984 E65.30717
G1 X87.356 Y114.405 E65.39812
G1 X88.089 Y114.050 E65.43627
G1 X88.369 Y113.804 E65.45372
G1 X88.369 Y82.664 E66.91260
G1 X89.431 Y83.474 E66.97516
G1 X90.209 Y83.823 E67.01512
G1 X91.148 Y83.519 E67.06139
G1 X91.277 Y82.806 E67.09533
G1 X91.277 Y110.044 E68.37145
G1 X92.011 Y109.459 E68.41544
G1 X93.567 Y109.481 E68.48833
G1 X93.800 Y110.106 E68.51962
G1 X94.184 Y111.030 E68.56650
G1 X94.184 Y76.887 E70.16608
G1 X97.092 Y75.692 E70.31337
G1 X97.092 Y115.191 E72.16388
G1 X97.635 Y115.408 E72.19128
G1 X100.000 Y116.232 E72.30859
G1 X100.000 Y74.899 E74.24500
G1 X100.256 Y74.873 E74.25707
G1 X102.510 Y74.868 E74.36265
G1 X102.908 Y74.934 E74.38155
G1 X102.908 Y116.470 E76.32747
G1 X105.050 Y115.932 E76.43095
G1 X105.816 Y115.710 E76.46829
G1 X105.816 Y75.390 E78.35729
G1 X108.364 Y74.668 E78.48138
G1 X108.723 Y74.619 E78.49837
G1 X108.723 Y114.869 E80.38403
G1 X108.923 Y114.811 E80.39376
G1 X111.631 Y114.913 E80.52073
G1 X111.631 Y74.227 E82.42684
G1 X114.539 Y73.836 E82.56430
G1 X114.539 Y115.014 E84.49349
G1 X117.447 Y114.895 E84.62983
G1 X117.447 Y73.729 E86.55846
G1 X120.355 Y73.684 E86.69470
G1 X120.355 Y114.700 E88.61627
G1 X122.069 Y114.369 E88.69806
G1 X123.262 Y114.047 E88.75598
G1 X123.262 Y74.299 E90.61816
G1 X124.847 Y74.655 E90.69425
G1 X126.170 Y74.907 E90.75735
G1 X126.170 Y113.157 E92.54935
G1 X129.078 Y111.889 E92.69796
G1 X129.078 Y75.334 E94.41054
G1 X131.986 Y77.531 E94.58128
G1 X131.986 Y110.062 E96.10534
G1 X134.894 Y107.281 E96.29384
G1 X134.894 Y79.709 E97.58556
G1 X137.801 Y81.329 E97.74150
G1 X137.801 Y104.400 E98.82233
G1 X139.601 Y103.036 E98.92811
G1 X140.709 Y102.141 E98.99483
G1 X140.709 Y82.487 E99.91564
G1 X143.617 Y83.110 E100.05496
G1 X143.617 Y100.122 E100.85197
G1 X144.342 Y99.705 E100.89114
G1 X146.525 Y98.647 E101.00479
G1 X146.525 Y84.137 E101.68458
G1 X146.936 Y84.301 E101.70531
G1 X147.767 Y84.769 E101.75001
G1 X148.262 Y85.079 E101.77739
G1 X149.433 Y85.017 E101.83231
G1 X149.433 Y98.026 E102.44179
G1 X150.182 Y97.920 E102.47727
G1 X152.340 Y97.337 E102.58198
G1 X152.340 Y85.290 E103.14642
G1 X155.248 Y85.914 E103.28575
G1 X155.248 Y98.248 E103.86359
G1 X158.156 Y99.364 E104.00951
G1 X158.156 Y86.538 E104.61040
G1 X158.410 Y86.593 E104.62255
G1 X161.064 Y87.907 E104.76132
G1 X161.064 Y102.024 E105.42266
G1 X161.604 Y102.790 E105.46661
G1 X162.600 Y105.252 E105.59100
G1 X163.380 Y107.971 E105.72352
G1 X163.972 Y111.471 E105.88983
G1 X163.972 Y90.063 E106.89278
G1 X166.879 Y92.578 E107.07290
G1 X166.879 Y119.504 E108.33437
G1 X168.357 Y120.836 E108.42753
G1 X168.193 Y121.129 E108.44328
G1 X169.134 Y121.977 E108.50262
