; G-Code generated by Simplify3D(R) Version 4.1.2
; Sep 15, 2022 at 7:09:47 PM
; Settings Summary
;   processName,Process1
;   applyToModels,Coaster
;   profileName,TEVO Tornado (modified)
;   profileVersion,2018-01-19 08:00:00
;   baseProfile,
;   printMaterial,PLA
;   printQuality,Medium
;   printExtruders,
;   extruderName,Primary Extruder
;   extruderToolheadNumber,0
;   extruderDiameter,0.4
;   extruderAutoWidth,0
;   extruderWidth,0.4
;   extrusionMultiplier,0.9
;   extruderUseRetract,1
;   extruderRetractionDistance,5
;   extruderExtraRestartDistance,0
;   extruderRetractionZLift,0
;   extruderRetractionSpeed,1800
;   extruderUseCoasting,0
;   extruderCoastingDistance,0.2
;   extruderUseWipe,0
;   extruderWipeDistance,5
;   primaryExtruder,0
;   layerHeight,0.2
;   topSolidLayers,3
;   bottomSolidLayers,3
;   perimeterOutlines,2
;   printPerimetersInsideOut,1
;   startPointOption,2
;   startPointOriginX,0
;   startPointOriginY,0
;   sequentialIslands,0
;   spiralVaseMode,0
;   firstLayerHeightPercentage,120
;   firstLayerWidthPercentage,150
;   firstLayerUnderspeed,0.8
;   useRaft,1
;   raftExtruder,0
;   raftTopLayers,3
;   raftBaseLayers,2
;   raftOffset,3
;   raftSeparationDistance,0.14
;   raftTopInfill,100
;   aboveRaftSpeedMultiplier,0.3
;   useSkirt,0
;   skirtExtruder,0
;   skirtLayers,1
;   skirtOutlines,2
;   skirtOffset,4
;   usePrimePillar,0
;   primePillarExtruder,999
;   primePillarWidth,12
;   primePillarLocation,7
;   primePillarSpeedMultiplier,1
;   useOozeShield,0
;   oozeShieldExtruder,999
;   oozeShieldOffset,2
;   oozeShieldOutlines,1
;   oozeShieldSidewallShape,1
;   oozeShieldSidewallAngle,30
;   oozeShieldSpeedMultiplier,1
;   infillExtruder,0
;   internalInfillPattern,Rectilinear
;   externalInfillPattern,Rectilinear
;   infillPercentage,20
;   outlineOverlapPercentage,15
;   infillExtrusionWidthPercentage,100
;   minInfillLength,5
;   infillLayerInterval,1
;   internalInfillAngles,45,-45
;   overlapInternalInfillAngles,0
;   externalInfillAngles,45,-45
;   generateSupport,1
;   supportExtruder,0
;   supportInfillPercentage,40
;   supportExtraInflation,0
;   supportBaseLayers,0
;   denseSupportExtruder,0
;   denseSupportLayers,0
;   denseSupportInfillPercentage,70
;   supportLayerInterval,1
;   supportHorizontalPartOffset,0.3
;   supportUpperSeparationLayers,1
;   supportLowerSeparationLayers,1
;   supportType,0
;   supportGridSpacing,4
;   maxOverhangAngle,45
;   supportAngles,0
;   temperatureName,Primary Extruder,Heated Bed
;   temperatureNumber,0,0
;   temperatureSetpointCount,1,1
;   temperatureSetpointLayers,1,1
;   temperatureSetpointTemperatures,210,60
;   temperatureStabilizeAtStartup,1,1
;   temperatureHeatedBed,0,1
;   fanLayers,1,2
;   fanSpeeds,0,100
;   blipFanToFullPower,0
;   adjustSpeedForCooling,1
;   minSpeedLayerTime,15
;   minCoolingSpeedSlowdown,20
;   increaseFanForCooling,0
;   minFanLayerTime,45
;   maxCoolingFanSpeed,100
;   increaseFanForBridging,0
;   bridgingFanSpeed,100
;   use5D,1
;   relativeEdistances,0
;   allowEaxisZeroing,1
;   independentExtruderAxes,0
;   includeM10123,0
;   stickySupport,1
;   applyToolheadOffsets,0
;   gcodeXoffset,0
;   gcodeYoffset,0
;   gcodeZoffset,0
;   overrideMachineDefinition,1
;   machineTypeOverride,0
;   strokeXoverride,300
;   strokeYoverride,300
;   strokeZoverride,400
;   originOffsetXoverride,0
;   originOffsetYoverride,0
;   originOffsetZoverride,0
;   homeXdirOverride,-1
;   homeYdirOverride,-1
;   homeZdirOverride,-1
;   flipXoverride,1
;   flipYoverride,-1
;   flipZoverride,1
;   toolheadOffsets,0,0|0,0|0,0|0,0|0,0|0,0
;   overrideFirmwareConfiguration,1
;   firmwareTypeOverride,RepRap (Marlin/Repetier/Sprinter)
;   GPXconfigOverride,r2
;   baudRateOverride,250000
;   overridePrinterModels,1
;   printerModelsOverride
;   startingGcode,G28 ; home all axes,G1 Z0.2 F3000 ; get ready to prime,G92 E0 ; reset extrusion distance,G1 X160 E15 F600 ; prime nozzle,G1 X180 F5000 ; quick wipe
;   layerChangeGcode,
;   retractionGcode,
;   toolChangeGcode,
;   endingGcode,G28 X0 ; home x axis,G1 Y295 F3000 ; bring the bed forward,M106 S0 ; turn off cooling fan,M104 S0 ; turn off extruder,M140 S0 ; turn off bed,M84 ; disable motors
;   exportFileFormat,gcode
;   celebration,0
;   celebrationSong,Random Song
;   postProcessing,
;   defaultSpeed,3000
;   outlineUnderspeed,0.5
;   solidInfillUnderspeed,0.8
;   supportUnderspeed,0.8
;   rapidXYspeed,4800
;   rapidZspeed,1000
;   minBridgingArea,50
;   bridgingExtraInflation,0
;   bridgingExtrusionMultiplier,1
;   bridgingSpeedMultiplier,1
;   useFixedBridgingAngle,0
;   fixedBridgingAngle,0
;   applyBridgingToPerimeters,0
;   filamentDiameters,1.75|1.75|1.75|1.75|1.75|1.75
;   filamentPricesPerKg,46|46|46|46|46|46
;   filamentDensities,1.25|1.25|1.25|1.25|1.25|1.25
;   useMinPrintHeight,0
;   minPrintHeight,0
;   useMaxPrintHeight,0
;   maxPrintHeight,0
;   useDiaphragm,0
;   diaphragmLayerInterval,20
;   robustSlicing,1
;   mergeAllIntoSolid,0
;   onlyRetractWhenCrossingOutline,1
;   retractBetweenLayers,1
;   useRetractionMinTravel,0
;   retractionMinTravel,3
;   retractWhileWiping,0
;   onlyWipeOutlines,1
;   avoidCrossingOutline,0
;   maxMovementDetourFactor,3
;   toolChangeRetractionDistance,12
;   toolChangeExtraRestartDistance,-0.5
;   toolChangeRetractionSpeed,600
;   externalThinWallType,0
;   internalThinWallType,2
;   thinWallAllowedOverlapPercentage,10
;   singleExtrusionMinLength,1
;   singleExtrusionMinPrintingWidthPercentage,50
;   singleExtrusionMaxPrintingWidthPercentage,200
;   singleExtrusionEndpointExtension,0.2
;   horizontalSizeCompensation,0
G90
M82
M106 S0
M140 S60
M190 S60
M104 S210 T0
M109 S210 T0
G28 ; home all axes
G1 Z0.2 F3000 ; get ready to prime
G92 E0 ; reset extrusion distance
G1 X160 E15 F600 ; prime nozzle
G1 X180 F5000 ; quick wipe
; process Process1
; layer 1, Z = 0.600
T0
G92 E0.0000
G1 E-5.0000 F1800
; feature raft
; tool H0.600 W0.800
G1 Z0.600 F1000
G1 X53.923 Y62.400 F4800
G1 E0.0000 F1800
G92 E0.0000
G1 X176.077 Y62.400 E21.9394 F600
G1 X177.600 Y63.923 E22.3263
G1 X177.600 Y74.003 E24.1367
G1 X177.820 Y74.223 E24.1926
G1 X177.820 Y80.777 E25.3697
G1 X177.600 Y80.997 E25.4256
G1 X177.600 Y89.003 E26.8635
G1 X177.820 Y89.223 E26.9194
G1 X177.820 Y95.777 E28.0965
G1 X177.600 Y95.997 E28.1524
G1 X177.600 Y104.003 E29.5903
G1 X177.820 Y104.223 E29.6462
G1 X177.820 Y110.297 E30.7371
G1 X177.600 Y110.517 E30.7930
G1 X177.600 Y119.483 E32.4033
G1 X177.820 Y119.703 E32.4592
G1 X177.820 Y125.777 E33.5501
G1 X177.600 Y125.997 E33.6060
G1 X177.600 Y134.003 E35.0439
G1 X177.820 Y134.223 E35.0998
G1 X177.820 Y140.777 E36.2769
G1 X177.600 Y140.997 E36.3328
G1 X177.600 Y149.003 E37.7707
G1 X177.820 Y149.223 E37.8266
G1 X177.820 Y155.777 E39.0037
G1 X177.600 Y155.997 E39.0596
G1 X177.600 Y166.077 E40.8700
G1 X176.077 Y167.600 E41.2569
G1 X53.923 Y167.600 E63.1963
G1 X52.400 Y166.077 E63.5832
G1 X52.400 Y155.997 E65.3936
G1 X52.180 Y155.777 E65.4494
G1 X52.180 Y149.223 E66.6266
G1 X52.400 Y149.003 E66.6824
G1 X52.400 Y140.997 E68.1204
G1 X52.180 Y140.777 E68.1763
G1 X52.180 Y134.223 E69.3534
G1 X52.400 Y134.003 E69.4092
G1 X52.400 Y125.997 E70.8472
G1 X52.180 Y125.777 E70.9031
G1 X52.180 Y119.703 E71.9940
G1 X52.400 Y119.483 E72.0498
G1 X52.400 Y110.517 E73.6602
G1 X52.180 Y110.297 E73.7161
G1 X52.180 Y104.223 E74.8070
G1 X52.400 Y104.003 E74.8628
G1 X52.400 Y95.997 E76.3008
G1 X52.180 Y95.777 E76.3567
G1 X52.180 Y89.223 E77.5338
G1 X52.400 Y89.003 E77.5896
G1 X52.400 Y80.997 E79.0276
G1 X52.180 Y80.777 E79.0835
G1 X52.180 Y74.223 E80.2606
G1 X52.400 Y74.003 E80.3165
G1 X52.400 Y63.923 E82.1269
G1 X53.923 Y62.400 E82.5137
G92 E0.0000
G1 E-5.0000 F1800
G1 X53.080 Y64.714 F4800
G1 E0.0000 F1800
G92 E0.0000
G1 X176.920 Y64.714 E22.2423 F600
G1 X176.920 Y67.000 E22.6528
G1 X53.080 Y67.000 E44.8950
G1 X53.080 Y69.286 E45.3056
G1 X176.920 Y69.286 E67.5478
G1 X176.920 Y71.571 E67.9583
G1 X53.080 Y71.571 E90.2006
G1 X53.080 Y73.857 E90.6111
G1 X176.920 Y73.857 E112.8534
G1 X176.920 Y74.285 E112.9301
G1 X177.140 Y74.505 E112.9860
G1 X177.140 Y76.143 E113.2802
G1 X52.860 Y76.143 E135.6015
G1 X52.860 Y78.429 E136.0120
G1 X177.140 Y78.429 E158.3333
G1 X177.140 Y80.495 E158.7045
G1 X176.921 Y80.714 E158.7601
G1 X53.080 Y80.715 E181.0030
G1 X53.080 Y83.000 E181.4133
G1 X176.920 Y83.000 E203.6556
G1 X176.920 Y85.286 E204.0661
G1 X53.080 Y85.286 E226.3084
G1 X53.080 Y87.571 E226.7189
G1 X176.920 Y87.571 E248.9611
G1 X176.920 Y89.285 E249.2689
G1 X177.140 Y89.505 E249.3247
G1 X177.140 Y89.857 E249.3880
G1 X52.860 Y89.857 E271.7093
G1 X52.860 Y92.143 E272.1198
G1 X177.140 Y92.143 E294.4411
G1 X177.140 Y94.429 E294.8516
G1 X52.860 Y94.429 E317.1729
G1 X52.860 Y95.495 E317.3645
G1 X53.080 Y95.715 E317.4204
G1 X53.080 Y96.714 E317.5998
G1 X176.920 Y96.714 E339.8421
G1 X176.920 Y99.000 E340.2526
G1 X53.080 Y99.000 E362.4948
G1 X53.080 Y101.286 E362.9054
G1 X176.920 Y101.286 E385.1476
G1 X176.920 Y103.571 E385.5581
G1 X53.080 Y103.571 E407.8004
G1 X53.080 Y104.285 E407.9285
G1 X52.860 Y104.505 E407.9844
G1 X52.860 Y105.857 E408.2273
G1 X177.140 Y105.857 E430.5486
G1 X177.140 Y108.143 E430.9591
G1 X52.860 Y108.143 E453.2804
G1 X52.860 Y110.015 E453.6167
G1 X53.080 Y110.235 E453.6725
G1 X53.080 Y110.429 E453.7073
G1 X176.920 Y110.429 E475.9495
G1 X176.920 Y112.714 E476.3600
G1 X53.080 Y112.714 E498.6023
G1 X53.080 Y115.000 E499.0128
G1 X176.920 Y115.000 E521.2551
G1 X176.920 Y117.286 E521.6656
G1 X53.080 Y117.286 E543.9078
G1 X53.080 Y119.571 E544.3184
G1 X176.920 Y119.571 E566.5606
G1 X176.920 Y119.765 E566.5953
G1 X177.140 Y119.985 E566.6512
G1 X177.140 Y121.857 E566.9875
G1 X52.860 Y121.857 E589.3088
G1 X52.860 Y124.143 E589.7193
G1 X177.140 Y124.143 E612.0406
G1 X177.140 Y125.495 E612.2835
G1 X176.920 Y125.715 E612.3394
G1 X176.920 Y126.429 E612.4675
G1 X53.080 Y126.429 E634.7097
G1 X53.080 Y128.714 E635.1202
G1 X176.920 Y128.714 E657.3625
G1 X176.920 Y131.000 E657.7730
G1 X53.080 Y131.000 E680.0153
G1 X53.080 Y133.286 E680.4258
G1 X176.920 Y133.286 E702.6680
G1 X176.920 Y134.285 E702.8475
G1 X177.140 Y134.505 E702.9034
G1 X177.140 Y135.571 E703.0949
G1 X52.860 Y135.571 E725.4162
G1 X52.860 Y137.857 E725.8267
G1 X177.140 Y137.857 E748.1480
G1 X177.140 Y140.143 E748.5585
G1 X52.860 Y140.143 E770.8798
G1 X52.860 Y140.495 E770.9431
G1 X53.080 Y140.715 E770.9990
G1 X53.080 Y142.429 E771.3067
G1 X176.920 Y142.429 E793.5490
G1 X176.920 Y144.714 E793.9595
G1 X53.080 Y144.714 E816.2017
G1 X53.080 Y147.000 E816.6123
G1 X176.920 Y147.000 E838.8545
G1 X176.921 Y149.286 E839.2651
G1 X53.079 Y149.286 E861.5077
G1 X52.860 Y149.505 E861.5634
G1 X52.860 Y151.571 E861.9345
G1 X177.140 Y151.571 E884.2558
G1 X177.140 Y153.857 E884.6663
G1 X52.860 Y153.857 E906.9876
G1 X52.860 Y155.495 E907.2818
G1 X53.080 Y155.715 E907.3377
G1 X53.080 Y156.143 E907.4145
G1 X176.920 Y156.143 E929.6568
G1 X176.920 Y158.429 E930.0673
G1 X53.080 Y158.429 E952.3095
G1 X53.080 Y160.714 E952.7201
G1 X176.920 Y160.714 E974.9623
G1 X176.920 Y163.000 E975.3728
G1 X53.080 Y163.000 E997.6151
G1 X53.080 Y165.286 E998.0256
G1 X176.920 Y165.286 E1020.2679
G92 E0.0000
G1 E-5.0000 F1800
; layer 2, Z = 1.100
M106 S255
; tool H0.500 W0.800
G1 Z1.100 F1000
G1 X177.600 Y166.077 F4800
G1 E0.0000 F1800
G92 E0.0000
G1 X176.077 Y167.600 E0.3224 F750
G1 X53.923 Y167.600 E18.6052
G1 X52.400 Y166.077 E18.9276
G1 X52.400 Y155.997 E20.4363
G1 X52.180 Y155.777 E20.4829
G1 X52.180 Y149.223 E21.4638
G1 X52.400 Y149.003 E21.5103
G1 X52.400 Y140.997 E22.7086
G1 X52.180 Y140.777 E22.7552
G1 X52.180 Y134.223 E23.7361
G1 X52.400 Y134.003 E23.7827
G1 X52.400 Y125.997 E24.9810
G1 X52.180 Y125.777 E25.0275
G1 X52.180 Y119.703 E25.9366
G1 X52.400 Y119.483 E25.9832
G1 X52.400 Y110.517 E27.3251
G1 X52.180 Y110.297 E27.3717
G1 X52.180 Y104.223 E28.2808
G1 X52.400 Y104.003 E28.3273
G1 X52.400 Y95.997 E29.5256
G1 X52.180 Y95.777 E29.5722
G1 X52.180 Y89.223 E30.5531
G1 X52.400 Y89.003 E30.5997
G1 X52.400 Y80.997 E31.7980
G1 X52.180 Y80.777 E31.8445
G1 X52.180 Y74.223 E32.8255
G1 X52.400 Y74.003 E32.8720
G1 X52.400 Y63.923 E34.3807
G1 X53.923 Y62.400 E34.7031
G1 X176.077 Y62.400 E52.9859
G1 X177.600 Y63.923 E53.3083
G1 X177.600 Y74.003 E54.8170
G1 X177.820 Y74.223 E54.8636
G1 X177.820 Y80.777 E55.8445
G1 X177.600 Y80.997 E55.8911
G1 X177.600 Y89.003 E57.0893
G1 X177.820 Y89.223 E57.1359
G1 X177.820 Y95.777 E58.1168
G1 X177.600 Y95.997 E58.1634
G1 X177.600 Y104.003 E59.3617
G1 X177.820 Y104.223 E59.4082
G1 X177.820 Y110.297 E60.3173
G1 X177.600 Y110.517 E60.3639
G1 X177.600 Y119.483 E61.7058
G1 X177.820 Y119.703 E61.7524
G1 X177.820 Y125.777 E62.6615
G1 X177.600 Y125.997 E62.7081
G1 X177.600 Y134.003 E63.9063
G1 X177.820 Y134.223 E63.9529
G1 X177.820 Y140.777 E64.9338
G1 X177.600 Y140.997 E64.9804
G1 X177.600 Y149.003 E66.1787
G1 X177.820 Y149.223 E66.2253
G1 X177.820 Y155.777 E67.2062
G1 X177.600 Y155.997 E67.2528
G1 X177.600 Y166.077 E68.7614
G92 E0.0000
G1 E-5.0000 F1800
G1 X176.920 Y165.286 F4800
G1 E0.0000 F1800
G92 E0.0000
G1 X53.080 Y165.286 E18.5352 F750
G1 X53.080 Y163.000 E18.8773
G1 X176.920 Y163.000 E37.4125
G1 X176.920 Y160.714 E37.7546
G1 X53.080 Y160.714 E56.2898
G1 X53.080 Y158.429 E56.6319
G1 X176.920 Y158.429 E75.1671
G1 X176.920 Y156.143 E75.5092
G1 X53.080 Y156.143 E94.0445
G1 X53.080 Y155.715 E94.1085
G1 X52.860 Y155.495 E94.1550
G1 X52.860 Y153.857 E94.4002
G1 X177.140 Y153.857 E113.0013
G1 X177.140 Y151.571 E113.3434
G1 X52.860 Y151.571 E131.9444
G1 X52.860 Y149.505 E132.2538
G1 X53.079 Y149.286 E132.3001
G1 X176.921 Y149.286 E150.8356
G1 X176.920 Y147.000 E151.1778
G1 X53.080 Y147.000 E169.7130
G1 X53.080 Y144.714 E170.0551
G1 X176.920 Y144.714 E188.5903
G1 X176.920 Y142.429 E188.9324
G1 X53.080 Y142.429 E207.4676
G1 X53.080 Y140.715 E207.7241
G1 X52.860 Y140.495 E207.7706
G1 X52.860 Y140.143 E207.8234
G1 X177.140 Y140.143 E226.4244
G1 X177.140 Y137.857 E226.7665
G1 X52.860 Y137.857 E245.3676
G1 X52.860 Y135.571 E245.7097
G1 X177.140 Y135.571 E264.3108
G1 X177.140 Y134.505 E264.4704
G1 X176.920 Y134.285 E264.5170
G1 X176.920 Y133.286 E264.6665
G1 X53.080 Y133.286 E283.2017
G1 X53.080 Y131.000 E283.5438
G1 X176.920 Y131.000 E302.0790
G1 X176.920 Y128.714 E302.4211
G1 X53.080 Y128.714 E320.9563
G1 X53.080 Y126.429 E321.2984
G1 X176.920 Y126.429 E339.8337
G1 X176.920 Y125.715 E339.9404
G1 X177.140 Y125.495 E339.9870
G1 X177.140 Y124.143 E340.1894
G1 X52.860 Y124.143 E358.7905
G1 X52.860 Y121.857 E359.1326
G1 X177.140 Y121.857 E377.7336
G1 X177.140 Y119.985 E378.0139
G1 X176.920 Y119.765 E378.0604
G1 X176.920 Y119.571 E378.0894
G1 X53.080 Y119.571 E396.6246
G1 X53.080 Y117.286 E396.9667
G1 X176.920 Y117.286 E415.5019
G1 X176.920 Y115.000 E415.8440
G1 X53.080 Y115.000 E434.3792
G1 X53.080 Y112.714 E434.7213
G1 X176.920 Y112.714 E453.2565
G1 X176.920 Y110.429 E453.5986
G1 X53.080 Y110.429 E472.1338
G1 X53.080 Y110.235 E472.1628
G1 X52.860 Y110.015 E472.2093
G1 X52.860 Y108.143 E472.4896
G1 X177.140 Y108.143 E491.0906
G1 X177.140 Y105.857 E491.4327
G1 X52.860 Y105.857 E510.0338
G1 X52.860 Y104.505 E510.2362
G1 X53.080 Y104.285 E510.2828
G1 X53.080 Y103.571 E510.3895
G1 X176.920 Y103.571 E528.9248
G1 X176.920 Y101.286 E529.2669
G1 X53.080 Y101.286 E547.8021
G1 X53.080 Y99.000 E548.1442
G1 X176.920 Y99.000 E566.6794
G1 X176.920 Y96.714 E567.0215
G1 X53.080 Y96.714 E585.5567
G1 X53.080 Y95.715 E585.7062
G1 X52.860 Y95.495 E585.7528
G1 X52.860 Y94.429 E585.9124
G1 X177.140 Y94.429 E604.5135
G1 X177.140 Y92.143 E604.8556
G1 X52.860 Y92.143 E623.4567
G1 X52.860 Y89.857 E623.7988
G1 X177.140 Y89.857 E642.3998
G1 X177.140 Y89.505 E642.4526
G1 X176.920 Y89.285 E642.4992
G1 X176.920 Y87.571 E642.7556
G1 X53.080 Y87.571 E661.2908
G1 X53.080 Y85.286 E661.6329
G1 X176.920 Y85.286 E680.1681
G1 X176.920 Y83.000 E680.5102
G1 X53.080 Y83.000 E699.0454
G1 X53.080 Y80.715 E699.3874
G1 X176.921 Y80.714 E717.9231
G1 X177.140 Y80.495 E717.9694
G1 X177.140 Y78.429 E718.2788
G1 X52.860 Y78.429 E736.8798
G1 X52.860 Y76.143 E737.2219
G1 X177.140 Y76.143 E755.8230
G1 X177.140 Y74.505 E756.0682
G1 X176.920 Y74.285 E756.1147
