; G-Code generated by Simplify3D(R) Version 4.1.2
; Sep 15, 2022 at 5:05:06 PM
; Settings Summary
;   processName,Process1
;   applyToModels,Coaster
;   profileName,Creality Ender 3 (modified)
;   profileVersion,2022-09-14 12:29:02
;   baseProfile,
;   printMaterial,PLA
;   printQuality,Medium
;   printExtruders,
;   extruderName,Primary Extruder
;   extruderToolheadNumber,0
;   extruderDiameter,0.4
;   extruderAutoWidth,0
;   extruderWidth,0.4
;   extrusionMultiplier,0.9
;   extruderUseRetract,1
;   extruderRetractionDistance,4
;   extruderExtraRestartDistance,0
;   extruderRetractionZLift,0
;   extruderRetractionSpeed,2400
;   extruderUseCoasting,0
;   extruderCoastingDistance,0.2
;   extruderUseWipe,0
;   extruderWipeDistance,5
;   primaryExtruder,0
;   layerHeight,0.2
;   topSolidLayers,3
;   bottomSolidLayers,3
;   perimeterOutlines,2
;   printPerimetersInsideOut,1
;   startPointOption,2
;   startPointOriginX,0
;   startPointOriginY,0
;   sequentialIslands,0
;   spiralVaseMode,0
;   firstLayerHeightPercentage,120
;   firstLayerWidthPercentage,150
;   firstLayerUnderspeed,0.5
;   useRaft,1
;   raftExtruder,0
;   raftTopLayers,3
;   raftBaseLayers,2
;   raftOffset,3
;   raftSeparationDistance,0.14
;   raftTopInfill,100
;   aboveRaftSpeedMultiplier,0.3
;   useSkirt,0
;   skirtExtruder,0
;   skirtLayers,1
;   skirtOutlines,2
;   skirtOffset,4
;   usePrimePillar,0
;   primePillarExtruder,999
;   primePillarWidth,12
;   primePillarLocation,7
;   primePillarSpeedMultiplier,1
;   useOozeShield,0
;   oozeShieldExtruder,999
;   oozeShieldOffset,2
;   oozeShieldOutlines,1
;   oozeShieldSidewallShape,1
;   oozeShieldSidewallAngle,30
;   oozeShieldSpeedMultiplier,1
;   infillExtruder,0
;   internalInfillPattern,Rectilinear
;   externalInfillPattern,Rectilinear
;   infillPercentage,20
;   outlineOverlapPercentage,15
;   infillExtrusionWidthPercentage,100
;   minInfillLength,5
;   infillLayerInterval,1
;   internalInfillAngles,45,-45
;   overlapInternalInfillAngles,0
;   externalInfillAngles,45,-45
;   generateSupport,1
;   supportExtruder,0
;   supportInfillPercentage,30
;   supportExtraInflation,0
;   supportBaseLayers,0
;   denseSupportExtruder,0
;   denseSupportLayers,0
;   denseSupportInfillPercentage,70
;   supportLayerInterval,1
;   supportHorizontalPartOffset,0.3
;   supportUpperSeparationLayers,1
;   supportLowerSeparationLayers,1
;   supportType,0
;   supportGridSpacing,4
;   maxOverhangAngle,45
;   supportAngles,0
;   temperatureName,Primary Extruder,Heated Bed
;   temperatureNumber,0,0
;   temperatureSetpointCount,1,1
;   temperatureSetpointLayers,1,1
;   temperatureSetpointTemperatures,210,60
;   temperatureStabilizeAtStartup,1,1
;   temperatureHeatedBed,0,1
;   fanLayers,1,2
;   fanSpeeds,0,100
;   blipFanToFullPower,0
;   adjustSpeedForCooling,1
;   minSpeedLayerTime,15
;   minCoolingSpeedSlowdown,20
;   increaseFanForCooling,0
;   minFanLayerTime,45
;   maxCoolingFanSpeed,100
;   increaseFanForBridging,0
;   bridgingFanSpeed,100
;   use5D,1
;   relativeEdistances,0
;   allowEaxisZeroing,1
;   independentExtruderAxes,0
;   includeM10123,0
;   stickySupport,1
;   applyToolheadOffsets,0
;   gcodeXoffset,0
;   gcodeYoffset,0
;   gcodeZoffset,0
;   overrideMachineDefinition,1
;   machineTypeOverride,0
;   strokeXoverride,220
;   strokeYoverride,220
;   strokeZoverride,250
;   originOffsetXoverride,-5
;   originOffsetYoverride,-5
;   originOffsetZoverride,0
;   homeXdirOverride,-1
;   homeYdirOverride,-1
;   homeZdirOverride,-1
;   flipXoverride,1
;   flipYoverride,-1
;   flipZoverride,1
;   toolheadOffsets,0,0|0,0|0,0|0,0|0,0|0,0
;   overrideFirmwareConfiguration,1
;   firmwareTypeOverride,RepRap (Marlin/Repetier/Sprinter)
;   GPXconfigOverride,r2
;   baudRateOverride,115200
;   overridePrinterModels,1
;   printerModelsOverride
;   startingGcode,G28 ; home all axes,G1 X5 Y10 Z0.2 F3000 ; get ready to prime,G92 E0 ; reset extrusion distance,G1 X160 E15 F600 ; prime nozzle,G1 X180 F5000 ; quick wipe
;   layerChangeGcode,
;   retractionGcode,
;   toolChangeGcode,
;   endingGcode,G28 X0 ; home X axis,M106 S0 ; turn off cooling fan,M104 S0 ; turn off extruder,M140 S0 ; turn off bed,M84 ; disable motors
;   exportFileFormat,gcode
;   celebration,0
;   celebrationSong,Random Song
;   postProcessing,
;   defaultSpeed,2400
;   outlineUnderspeed,0.5
;   solidInfillUnderspeed,0.8
;   supportUnderspeed,0.8
;   rapidXYspeed,4800
;   rapidZspeed,1000
;   minBridgingArea,50
;   bridgingExtraInflation,0
;   bridgingExtrusionMultiplier,1
;   bridgingSpeedMultiplier,1
;   useFixedBridgingAngle,0
;   fixedBridgingAngle,0
;   applyBridgingToPerimeters,0
;   filamentDiameters,1.75|1.75|1.75|1.75|1.75|1.75
;   filamentPricesPerKg,46|46|46|46|46|46
;   filamentDensities,1.25|1.25|1.25|1.25|1.25|1.25
;   useMinPrintHeight,0
;   minPrintHeight,0
;   useMaxPrintHeight,0
;   maxPrintHeight,0
;   useDiaphragm,0
;   diaphragmLayerInterval,20
;   robustSlicing,1
;   mergeAllIntoSolid,0
;   onlyRetractWhenCrossingOutline,1
;   retractBetweenLayers,1
;   useRetractionMinTravel,0
;   retractionMinTravel,3
;   retractWhileWiping,0
;   onlyWipeOutlines,1
;   avoidCrossingOutline,0
;   maxMovementDetourFactor,3
;   toolChangeRetractionDistance,12
;   toolChangeExtraRestartDistance,-0.5
;   toolChangeRetractionSpeed,600
;   externalThinWallType,0
;   internalThinWallType,2
;   thinWallAllowedOverlapPercentage,10
;   singleExtrusionMinLength,1
;   singleExtrusionMinPrintingWidthPercentage,50
;   singleExtrusionMaxPrintingWidthPercentage,200
;   singleExtrusionEndpointExtension,0.2
;   horizontalSizeCompensation,0
G90
M82
M106 S0
M140 S60
M190 S60
M104 S210 T0
M109 S210 T0
G28 ; home all axes
G1 X5 Y10 Z0.2 F3000 ; get ready to prime
G92 E0 ; reset extrusion distance
G1 X160 E15 F600 ; prime nozzle
G1 X180 F5000 ; quick wipe
; process Process1
; layer 1, Z = 0.600
T0
G92 E0.0000
G1 E-4.0000 F2400
; feature raft
; tool H0.600 W0.800
G1 Z0.600 F1000
G1 X62.400 Y53.923 F4800
G1 E0.0000 F2400
G92 E0.0000
G1 X63.923 Y52.400 E0.3869 F300
G1 X74.003 Y52.400 E2.1973
G1 X74.223 Y52.180 E2.2531
G1 X80.777 Y52.180 E3.4303
G1 X80.997 Y52.400 E3.4861
G1 X89.003 Y52.400 E4.9241
G1 X89.223 Y52.180 E4.9800
G1 X94.297 Y52.180 E5.8913
G1 X94.517 Y52.400 E5.9471
G1 X104.003 Y52.400 E7.6509
G1 X104.223 Y52.180 E7.7068
G1 X110.297 Y52.180 E8.7977
G1 X110.517 Y52.400 E8.8536
G1 X119.483 Y52.400 E10.4639
G1 X119.703 Y52.180 E10.5198
G1 X125.777 Y52.180 E11.6107
G1 X125.997 Y52.400 E11.6666
G1 X134.003 Y52.400 E13.1045
G1 X134.223 Y52.180 E13.1604
G1 X140.777 Y52.180 E14.3375
G1 X140.997 Y52.400 E14.3934
G1 X149.003 Y52.400 E15.8313
G1 X149.223 Y52.180 E15.8872
G1 X154.297 Y52.180 E16.7985
G1 X154.517 Y52.400 E16.8544
G1 X166.077 Y52.400 E18.9306
G1 X167.600 Y53.923 E19.3174
G1 X167.600 Y176.077 E41.2569
G1 X166.077 Y177.600 E41.6437
G1 X154.517 Y177.600 E43.7200
G1 X154.297 Y177.820 E43.7758
G1 X149.223 Y177.820 E44.6871
G1 X149.003 Y177.600 E44.7430
G1 X140.997 Y177.600 E46.1809
G1 X140.777 Y177.820 E46.2368
G1 X134.223 Y177.820 E47.4139
G1 X134.003 Y177.600 E47.4698
G1 X125.997 Y177.600 E48.9077
G1 X125.777 Y177.820 E48.9636
G1 X119.703 Y177.820 E50.0545
G1 X119.483 Y177.600 E50.1104
G1 X110.517 Y177.600 E51.7208
G1 X110.297 Y177.820 E51.7766
G1 X104.223 Y177.820 E52.8675
G1 X104.003 Y177.600 E52.9234
G1 X94.517 Y177.600 E54.6272
G1 X94.297 Y177.820 E54.6830
G1 X89.223 Y177.820 E55.5944
G1 X89.003 Y177.600 E55.6502
G1 X80.997 Y177.600 E57.0882
G1 X80.777 Y177.820 E57.1440
G1 X74.223 Y177.820 E58.3212
G1 X74.003 Y177.600 E58.3770
G1 X63.923 Y177.600 E60.1874
G1 X62.400 Y176.077 E60.5743
G1 X62.400 Y53.923 E82.5137
G92 E0.0000
G1 E-4.0000 F2400
G1 X63.999 Y53.286 F4800
G1 E0.0000 F2400
G92 E0.0000
G1 X166.001 Y53.286 E18.3201 F300
G1 X166.920 Y54.205 E18.5535
G1 X166.920 Y55.571 E18.7989
G1 X63.080 Y55.571 E37.4491
G1 X63.080 Y57.857 E37.8596
G1 X166.920 Y57.857 E56.5098
G1 X166.920 Y60.143 E56.9203
G1 X63.080 Y60.143 E75.5705
G1 X63.080 Y62.429 E75.9810
G1 X166.920 Y62.429 E94.6311
G1 X166.920 Y64.714 E95.0417
G1 X63.080 Y64.714 E113.6918
G1 X63.080 Y67.000 E114.1023
G1 X166.920 Y67.000 E132.7525
G1 X166.920 Y69.286 E133.1630
G1 X63.080 Y69.286 E151.8132
G1 X63.080 Y71.571 E152.2237
G1 X166.920 Y71.571 E170.8739
G1 X166.920 Y73.857 E171.2844
G1 X63.080 Y73.857 E189.9345
G1 X63.080 Y76.143 E190.3451
G1 X166.920 Y76.143 E208.9952
G1 X166.920 Y78.429 E209.4058
G1 X63.080 Y78.429 E228.0559
G1 X63.080 Y80.714 E228.4664
G1 X166.920 Y80.714 E247.1166
G1 X166.920 Y83.000 E247.5271
G1 X63.080 Y83.000 E266.1773
G1 X63.080 Y85.286 E266.5878
G1 X166.920 Y85.286 E285.2380
G1 X166.920 Y87.571 E285.6485
G1 X63.080 Y87.571 E304.2986
G1 X63.080 Y89.857 E304.7092
G1 X166.920 Y89.857 E323.3593
G1 X166.920 Y92.143 E323.7698
G1 X63.080 Y92.143 E342.4200
G1 X63.080 Y94.429 E342.8305
G1 X166.920 Y94.429 E361.4807
G1 X166.920 Y96.714 E361.8912
G1 X63.080 Y96.714 E380.5414
G1 X63.080 Y99.000 E380.9519
G1 X166.920 Y99.000 E399.6020
G1 X166.920 Y101.286 E400.0126
G1 X63.080 Y101.286 E418.6627
G1 X63.080 Y103.571 E419.0732
G1 X166.920 Y103.571 E437.7234
G1 X166.920 Y105.857 E438.1339
G1 X63.080 Y105.857 E456.7841
G1 X63.080 Y108.143 E457.1946
G1 X166.920 Y108.143 E475.8448
G1 X166.920 Y110.429 E476.2553
G1 X63.080 Y110.429 E494.9054
G1 X63.080 Y112.714 E495.3160
G1 X166.920 Y112.714 E513.9661
G1 X166.920 Y115.000 E514.3766
G1 X63.080 Y115.000 E533.0268
G1 X63.080 Y117.286 E533.4373
G1 X166.920 Y117.286 E552.0875
G1 X166.920 Y119.571 E552.4980
G1 X63.080 Y119.571 E571.1482
G1 X63.080 Y121.857 E571.5587
G1 X166.920 Y121.857 E590.2088
G1 X166.920 Y124.143 E590.6194
G1 X63.080 Y124.143 E609.2695
G1 X63.080 Y126.429 E609.6801
G1 X166.920 Y126.429 E628.3302
G1 X166.920 Y128.714 E628.7407
G1 X63.080 Y128.714 E647.3909
G1 X63.080 Y131.000 E647.8014
G1 X166.920 Y131.000 E666.4516
G1 X166.920 Y133.286 E666.8621
G1 X63.080 Y133.286 E685.5123
G1 X63.080 Y135.571 E685.9228
G1 X166.920 Y135.571 E704.5729
G1 X166.920 Y137.857 E704.9835
G1 X63.080 Y137.857 E723.6336
G1 X63.080 Y140.143 E724.0441
G1 X166.920 Y140.143 E742.6943
G1 X166.920 Y142.429 E743.1048
G1 X63.080 Y142.429 E761.7550
G1 X63.080 Y144.714 E762.1655
G1 X166.920 Y144.714 E780.8157
G1 X166.920 Y147.000 E781.2262
G1 X63.080 Y147.000 E799.8763
G1 X63.080 Y149.286 E800.2869
G1 X166.920 Y149.286 E818.9370
G1 X166.920 Y151.571 E819.3475
G1 X63.080 Y151.571 E837.9977
G1 X63.080 Y153.857 E838.4082
G1 X166.920 Y153.857 E857.0584
G1 X166.920 Y156.143 E857.4689
G1 X63.080 Y156.143 E876.1191
G1 X63.080 Y158.429 E876.5296
G1 X166.920 Y158.429 E895.1797
G1 X166.920 Y160.714 E895.5903
G1 X63.080 Y160.714 E914.2404
G1 X63.080 Y163.000 E914.6509
G1 X166.920 Y163.000 E933.3011
G1 X166.920 Y165.286 E933.7116
G1 X63.080 Y165.286 E952.3618
G1 X63.080 Y167.571 E952.7723
G1 X166.920 Y167.571 E971.4225
G1 X166.920 Y169.857 E971.8330
G1 X63.080 Y169.857 E990.4831
G1 X63.080 Y172.143 E990.8937
G1 X166.920 Y172.143 E1009.5438
G1 X166.920 Y174.429 E1009.9544
G1 X63.080 Y174.429 E1028.6045
G1 X63.080 Y175.795 E1028.8500
G1 X63.999 Y176.714 E1029.0834
G1 X166.001 Y176.714 E1047.4034
G92 E0.0000
G1 E-4.0000 F2400
; layer 2, Z = 1.100
M106 S255
; tool H0.500 W0.800
G1 Z1.100 F1000
G1 X166.077 Y177.600 F4800
G1 E0.0000 F2400
G92 E0.0000
G1 X154.517 Y177.600 E1.7302 F600
G1 X154.297 Y177.820 E1.7768
G1 X149.223 Y177.820 E2.5362
G1 X149.003 Y177.600 E2.5827
G1 X140.997 Y177.600 E3.7810
G1 X140.777 Y177.820 E3.8276
G1 X134.223 Y177.820 E4.8085
G1 X134.003 Y177.600 E4.8551
G1 X125.997 Y177.600 E6.0534
G1 X125.777 Y177.820 E6.0999
G1 X119.703 Y177.820 E7.0090
G1 X119.483 Y177.600 E7.0556
G1 X110.517 Y177.600 E8.3975
G1 X110.297 Y177.820 E8.4441
G1 X104.223 Y177.820 E9.3532
G1 X104.003 Y177.600 E9.3997
G1 X94.517 Y177.600 E10.8195
G1 X94.297 Y177.820 E10.8661
G1 X89.223 Y177.820 E11.6255
G1 X89.003 Y177.600 E11.6721
G1 X80.997 Y177.600 E12.8704
G1 X80.777 Y177.820 E12.9169
G1 X74.223 Y177.820 E13.8979
G1 X74.003 Y177.600 E13.9444
G1 X63.923 Y177.600 E15.4531
G1 X62.400 Y176.077 E15.7755
G1 X62.400 Y53.923 E34.0583
G1 X63.923 Y52.400 E34.3807
G1 X74.003 Y52.400 E35.8894
G1 X74.223 Y52.180 E35.9360
G1 X80.777 Y52.180 E36.9169
G1 X80.997 Y52.400 E36.9635
G1 X89.003 Y52.400 E38.1617
G1 X89.223 Y52.180 E38.2083
G1 X94.297 Y52.180 E38.9677
G1 X94.517 Y52.400 E39.0143
G1 X104.003 Y52.400 E40.4341
G1 X104.223 Y52.180 E40.4806
G1 X110.297 Y52.180 E41.3897
G1 X110.517 Y52.400 E41.4363
G1 X119.483 Y52.400 E42.7783
G1 X119.703 Y52.180 E42.8248
G1 X125.777 Y52.180 E43.7339
G1 X125.997 Y52.400 E43.7805
G1 X134.003 Y52.400 E44.9787
G1 X134.223 Y52.180 E45.0253
G1 X140.777 Y52.180 E46.0062
G1 X140.997 Y52.400 E46.0528
G1 X149.003 Y52.400 E47.2511
G1 X149.223 Y52.180 E47.2977
G1 X154.297 Y52.180 E48.0571
G1 X154.517 Y52.400 E48.1036
G1 X166.077 Y52.400 E49.8338
G1 X167.600 Y53.923 E50.1562
G1 X167.600 Y176.077 E68.4391
G1 X166.077 Y177.600 E68.7614
G92 E0.0000
G1 E-4.0000 F2400
G1 X166.001 Y176.714 F4800
G1 E0.0000 F2400
G92 E0.0000
G1 X63.999 Y176.714 E15.2667 F600
G1 X63.080 Y175.795 E15.4612
G1 X63.080 Y174.429 E15.6658
G1 X166.920 Y174.429 E31.2076
G1 X166.920 Y172.143 E31.5497
G1 X63.080 Y172.143 E47.0915
G1 X63.080 Y169.857 E47.4336
G1 X166.920 Y169.857 E62.9754
G1 X166.920 Y167.571 E63.3175
G1 X63.080 Y167.571 E78.8593
G1 X63.080 Y165.286 E79.2014
G1 X166.920 Y165.286 E94.7432
G1 X166.920 Y163.000 E95.0853
G1 X63.080 Y163.000 E110.6271
G1 X63.080 Y160.714 E110.9692
G1 X166.920 Y160.714 E126.5110
G1 X166.920 Y158.429 E126.8531
G1 X63.080 Y158.429 E142.3949
G1 X63.080 Y156.143 E142.7370
G1 X166.920 Y156.143 E158.2788
G1 X166.920 Y153.857 E158.6209
G1 X63.080 Y153.857 E174.1627
G1 X63.080 Y151.571 E174.5048
G1 X166.920 Y151.571 E190.0466
G1 X166.920 Y149.286 E190.3887
G1 X63.080 Y149.286 E205.9305
G1 X63.080 Y147.000 E206.2726
G1 X166.920 Y147.000 E221.8144
G1 X166.920 Y144.714 E222.1565
G1 X63.080 Y144.714 E237.6983
G1 X63.080 Y142.429 E238.0404
G1 X166.920 Y142.429 E253.5822
G1 X166.920 Y140.143 E253.9243
G1 X63.080 Y140.143 E269.4661
G1 X63.080 Y137.857 E269.8082
G1 X166.920 Y137.857 E285.3500
G1 X166.920 Y135.571 E285.6921
G1 X63.080 Y135.571 E301.2339
G1 X63.080 Y133.286 E301.5760
G1 X166.920 Y133.286 E317.1178
G1 X166.920 Y131.000 E317.4599
G1 X63.080 Y131.000 E333.0017
G1 X63.080 Y128.714 E333.3438
G1 X166.920 Y128.714 E348.8856
G1 X166.920 Y126.429 E349.2277
G1 X63.080 Y126.429 E364.7695
G1 X63.080 Y124.143 E365.1116
G1 X166.920 Y124.143 E380.6534
G1 X166.920 Y121.857 E380.9955
G1 X63.080 Y121.857 E396.5373
G1 X63.080 Y119.571 E396.8794
G1 X166.920 Y119.571 E412.4212
G1 X166.920 Y117.286 E412.7633
G1 X63.080 Y117.286 E428.3051
G1 X63.080 Y115.000 E428.6472
G1 X166.920 Y115.000 E444.1890
G1 X166.920 Y112.714 E444.5311
G1 X63.080 Y112.714 E460.0729
G1 X63.080 Y110.429 E460.4150
G1 X166.920 Y110.429 E475.9568
G1 X166.920 Y108.143 E476.2989
G1 X63.080 Y108.143 E491.8407
G1 X63.080 Y105.857 E492.1828
G1 X166.920 Y105.857 E507.7246
G1 X166.920 Y103.571 E508.0667
G1 X63.080 Y103.571 E523.6085
G1 X63.080 Y101.286 E523.9506
G1 X166.920 Y101.286 E539.4924
G1 X166.920 Y99.000 E539.8345
G1 X63.080 Y99.000 E555.3763
G1 X63.080 Y96.714 E555.7184
G1 X166.920 Y96.714 E571.2602
G1 X166.920 Y94.429 E571.6023
G1 X63.080 Y94.429 E587.1441
G1 X63.080 Y92.143 E587.4862
G1 X166.920 Y92.143 E603.0280
G1 X166.920 Y89.857 E603.3701
G1 X63.080 Y89.857 E618.9119
G1 X63.080 Y87.571 E619.2540
G1 X166.920 Y87.571 E634.7958
G1 X166.920 Y85.286 E635.1379
G1 X63.080 Y85.286 E650.6797
G1 X63.080 Y83.000 E651.0218
G1 X166.920 Y83.000 E666.5636
G1 X166.920 Y80.714 E666.9057
G1 X63.080 Y80.714 E682.4475
G1 X63.080 Y78.429 E682.7896
G1 X166.920 Y78.429 E698.3314
G1 X166.920 Y76.143 E698.6735
G1 X63.080 Y76.143 E714.2153
G1 X63.080 Y73.857 E714.5574
G1 X166.920 Y73.857 E730.0992
G1 X166.920 Y71.571 E730.4413
G1 X63.080 Y71.571 E745.9831
G1 X63.080 Y69.286 E746.3252
G1 X166.920 Y69.286 E761.8670
G1 X166.920 Y67.000 E762.2091
G1 X63.080 Y67.000 E777.7509
G1 X63.080 Y64.714 E778.0930
G1 X166.920 Y64.714 E793.6348
G1 X166.920 Y62.429 E793.9769
G1 X63.080 Y62.429 E809.5187
G1 X63.080 Y60.143 E809.8608
