; generated by Slic3r 1.3.1-dev (Build 18ddd3a36dc69d81fb9b7440498bff9e1dde8b7e) on 2022-10-04 at 20:52:37

; external perimeters extrusion width = 0.44mm (2.90mm^3/s)
; perimeters extrusion width = 0.56mm (7.54mm^3/s)
; infill extrusion width = 0.50mm (8.93mm^3/s)
; solid infill extrusion width = 0.56mm (2.51mm^3/s)
; top infill extrusion width = 0.56mm (1.88mm^3/s)
; support material extrusion width = 0.44mm (0.00mm^3/s)

M107
G92 E0
M190 S65 ; set bed temperature and wait for it to be reached
M104 S225 ; set temperature
G28 ; home all axes
G1 Z5 F5000 ; lift nozzle

; Filament gcode

M109 S225 ; set temperature and wait for it to be reached
G21 ; set units to millimeters
G90 ; use absolute coordinates
M82 ; use absolute distances for extrusion
G92 E0
G1 Z0.400 F7800.000
G1 E-2.20000 F2400.00000
G92 E0
G1 X78.913 Y89.457 F7800.000
G1 E2.20000 F2400.00000
G1 F3600.000
G1 X81.539 Y87.632 E2.57976
G1 X84.564 Y86.319 E2.97145
G1 X85.937 Y85.863 E3.14333
G1 X94.877 Y83.755 E4.23416
G1 X96.757 Y83.537 E4.45900
G1 X103.179 Y83.546 E5.22162
G1 X105.022 Y83.761 E5.44202
G1 X114.074 Y85.878 E6.54607
G1 X115.442 Y86.329 E6.71713
G1 X118.453 Y87.627 E7.10658
G1 X120.603 Y88.987 E7.40877
G1 X122.558 Y91.554 E7.79192
G1 X126.253 Y99.181 E8.79846
G1 X126.713 Y100.354 E8.94804
G1 X127.290 Y102.244 E9.18276
G1 X127.644 Y104.763 E9.48495
G1 X127.203 Y107.269 E9.78713
G1 X126.010 Y109.517 E10.08932
G1 X124.205 Y111.269 E10.38804
G1 X123.725 Y111.609 E10.45796
G1 X120.409 Y112.985 E10.88434
G1 X107.905 Y115.147 E12.39140
G1 X106.810 Y115.260 E12.52215
G1 X101.279 Y115.459 E13.17947
G1 X99.019 Y115.485 E13.44785
G1 X93.152 Y115.259 E14.14516
G1 X92.069 Y115.142 E14.27453
G1 X79.592 Y112.947 E15.77922
G1 X76.302 Y111.576 E16.20250
G1 X75.819 Y111.234 E16.27277
G1 X73.997 Y109.458 E16.57496
G1 X72.812 Y107.206 E16.87715
G1 X72.380 Y104.698 E17.17933
G1 X72.718 Y102.263 E17.47134
G1 X73.271 Y100.407 E17.70131
G1 X73.751 Y99.174 E17.85850
G1 X77.457 Y91.544 E18.86596
G1 X78.878 Y89.506 E19.16102
G1 X79.504 Y89.873 F7800.000
G1 F3600.000
G1 X81.823 Y88.287 E19.49468
G1 X84.848 Y86.974 E19.88638
G1 X86.101 Y86.558 E20.04318
G1 X95.041 Y84.450 E21.13400
G1 X96.756 Y84.251 E21.33913
G1 X103.178 Y84.261 E22.10175
G1 X104.859 Y84.456 E22.30282
G1 X113.911 Y86.574 E23.40687
G1 X115.159 Y86.985 E23.56293
G1 X118.170 Y88.283 E23.95237
G1 X120.214 Y89.597 E24.24092
G1 X121.915 Y91.866 E24.57769
G1 X125.610 Y99.492 E25.58423
G1 X126.030 Y100.562 E25.72069
G1 X126.607 Y102.452 E25.95540
G1 X126.927 Y104.861 E26.24395
G1 X126.453 Y107.243 E26.53249
G1 X125.235 Y109.346 E26.82104
G1 X123.793 Y110.686 E27.05487
G1 X123.312 Y111.026 E27.12479
G1 X120.287 Y112.282 E27.51378
G1 X107.783 Y114.443 E29.02084
G1 X106.784 Y114.547 E29.14012
G1 X101.253 Y114.745 E29.79744
G1 X99.012 Y114.771 E30.06368
G1 X93.181 Y114.545 E30.75668
G1 X92.193 Y114.439 E30.87469
G1 X79.715 Y112.243 E32.37938
G1 X76.714 Y110.993 E32.76554
G1 X76.231 Y110.651 E32.83578
G1 X74.504 Y108.942 E33.12433
G1 X73.421 Y106.767 E33.41287
G1 X73.097 Y104.360 E33.70142
G1 X73.403 Y102.467 E33.92911
G1 X73.955 Y100.611 E34.15908
G1 X74.393 Y99.486 E34.30248
G1 X78.099 Y91.856 E35.30994
G1 X79.469 Y89.922 E35.59136
G1 X80.093 Y90.295 F7800.000
G1 F3600.000
G1 X82.107 Y88.942 E35.87957
G1 X85.133 Y87.629 E36.27126
G1 X86.265 Y87.253 E36.41299
G1 X95.205 Y85.145 E37.50381
G1 X96.755 Y84.966 E37.68922
G1 X103.177 Y84.975 E38.45184
G1 X104.697 Y85.151 E38.63357
G1 X113.748 Y87.269 E39.73762
G1 X114.876 Y87.641 E39.87868
G1 X117.888 Y88.939 E40.26813
G1 X119.819 Y90.204 E40.54235
G1 X121.272 Y92.177 E40.83337
G1 X124.968 Y99.804 E41.83991
G1 X125.347 Y100.771 E41.96325
G1 X125.924 Y102.661 E42.19797
G1 X126.209 Y104.952 E42.47219
G1 X125.700 Y107.204 E42.74642
G1 X124.459 Y109.151 E43.02064
G1 X123.380 Y110.103 E43.19145
G1 X122.900 Y110.443 E43.26137
G1 X120.166 Y111.578 E43.61296
G1 X107.662 Y113.739 E45.12002
G1 X106.759 Y113.833 E45.22783
G1 X101.228 Y114.031 E45.88515
G1 X99.004 Y114.057 E46.14924
G1 X93.210 Y113.832 E46.83793
G1 X92.317 Y113.736 E46.94460
G1 X79.839 Y111.540 E48.44929
G1 X77.126 Y110.409 E48.79832
G1 X76.644 Y110.068 E48.86854
G1 X75.016 Y108.430 E49.14276
G1 X74.040 Y106.338 E49.41699
G1 X73.830 Y104.038 E49.69121
G1 X74.087 Y102.671 E49.85645
G1 X74.640 Y100.815 E50.08642
G1 X75.035 Y99.798 E50.21603
G1 X78.742 Y92.168 E51.22349
G1 X80.058 Y90.344 E51.49059
G1 E49.29059 F2400.00000
G92 E0
G1 X85.716 Y95.703 F7800.000
G1 E2.20000 F2400.00000
G1 F3600.000
G1 X85.716 Y99.616 E2.66473
G1 X86.751 Y100.583 E2.83299
G1 X85.731 Y101.252 E2.97783
G1 X87.144 Y101.483 E3.14788
G1 X87.144 Y98.852 E3.46034
G1 X86.481 Y98.605 E3.54444
G1 X86.412 Y98.624 E3.55287
G1 X86.197 Y98.301 E3.59896
G1 X85.835 Y98.399 E3.64353
G1 X85.800 Y97.660 E3.73139
G1 X85.807 Y96.995 E3.81039
G1 X85.931 Y96.990 E3.82522
G1 X85.932 Y96.960 E3.82872
G1 X86.148 Y96.814 E3.85971
G1 X86.681 Y95.873 E3.98819
G1 X86.744 Y95.981 E4.00315
G1 X86.806 Y95.871 E4.01824
G1 X86.868 Y95.977 E4.03283
G1 X86.931 Y95.866 E4.04793
G1 X87.144 Y96.235 E4.09851
G1 X87.144 Y94.697 E4.28112
G1 X87.413 Y94.506 E4.32023
G1 X87.398 Y94.798 E4.35491
G1 X87.744 Y94.552 E4.40528
G1 X87.739 Y94.836 E4.43907
G1 X88.158 Y94.538 E4.50010
G1 X88.153 Y94.823 E4.53390
G1 X88.571 Y94.525 E4.59493
G1 X88.573 Y96.250 E4.79975
G1 X89.029 Y96.241 E4.85398
G1 X89.021 Y96.083 E4.87277
G1 X90.001 Y96.128 E4.98925
G1 X90.001 Y94.668 E5.16261
G1 X90.173 Y94.549 E5.18741
G1 X90.179 Y95.655 E5.31869
G1 X91.429 Y95.596 E5.46734
G1 X91.429 Y96.179 E5.53659
G1 X91.785 Y96.185 E5.57889
G1 X91.761 Y97.751 E5.76486
G1 X92.200 Y98.457 E5.86360
G1 X92.858 Y98.737 E5.94851
G1 X92.858 Y94.521 E6.44917
G1 X94.286 Y94.068 E6.62715
G1 X94.286 Y98.976 E7.21011
G1 X95.518 Y98.975 E7.35649
G1 X95.649 Y99.045 E7.37406
G1 X95.714 Y99.046 E7.38183
G1 X95.714 Y92.596 E8.14787
G1 X95.916 Y92.526 E8.17326
G1 X96.677 Y92.121 E8.27561
G1 X97.099 Y92.556 E8.34760
G1 X97.143 Y92.556 E8.35274
G1 X97.143 Y93.159 E8.42440
G1 X98.571 Y93.160 E8.59403
G1 X98.571 Y92.556 E8.66575
G1 X99.999 Y92.556 E8.83538
G1 X99.999 Y92.680 E8.85021
G1 X100.062 Y92.629 E8.85990
G1 X100.675 Y93.160 E8.95616
G1 X101.428 Y93.160 E9.04557
G1 X101.428 Y92.556 E9.11729
G1 X102.808 Y92.556 E9.28129
G1 X102.856 Y92.508 E9.28928
G1 X102.856 Y93.160 E9.36666
G1 X103.335 Y93.160 E9.42352
G1 X103.383 Y93.202 E9.43117
G1 X104.096 Y93.214 E9.51580
G1 X104.081 Y94.812 E9.70560
G1 X102.856 Y94.570 E9.85392
G1 X102.856 Y95.126 E9.91993
G1 E7.71993 F2400.00000
G92 E0
G1 X102.856 Y100.126 F7800.000
G1 E2.20000 F2400.00000
G1 F3600.000
G1 X103.002 Y100.053 E2.21934
G1 X102.856 Y99.865 E2.24764
G1 X102.856 Y100.126 E2.27868
G1 E0.07868 F2400.00000
G92 E0
G1 X104.284 Y105.487 F7800.000
G1 E2.20000 F2400.00000
G1 F3600.000
G1 X104.284 Y106.076 E2.26987
G1 X104.374 Y106.712 E2.34623
G1 X105.713 Y106.746 E2.50526
G1 X105.713 Y105.025 E2.70967
G1 X106.003 Y104.926 E2.74615
G1 X105.902 Y104.489 E2.79944
G1 X107.082 Y104.019 E2.95027
G1 X107.141 Y103.884 E2.96771
G1 X107.141 Y106.594 E3.28959
G1 X107.709 Y106.449 E3.35928
G1 X108.569 Y106.170 E3.46664
G1 X108.569 Y104.970 E3.60917
G1 X108.606 Y105.114 E3.62693
G1 X109.645 Y103.340 E3.87111
G1 X109.613 Y103.300 E3.87726
G1 X109.997 Y103.140 E3.92679
G1 X109.997 Y105.706 E4.23159
G1 X111.240 Y105.303 E4.38669
G1 X111.231 Y105.244 E4.39370
G1 X111.426 Y105.195 E4.41751
G1 X111.426 Y103.205 E4.65384
G1 X111.695 Y103.187 E4.68586
G1 X112.389 Y103.203 E4.76838
G1 X112.854 Y103.172 E4.82369
G1 X112.854 Y104.776 E5.01419
G1 X114.282 Y104.312 E5.19254
G1 X114.282 Y102.792 E5.37303
G1 X114.950 Y102.580 E5.45622
G1 X115.564 Y102.337 E5.53462
G1 X115.554 Y102.576 E5.56307
G1 X115.711 Y102.514 E5.58311
G1 X115.711 Y103.907 E5.74855
G1 X116.087 Y103.892 E5.79322
G1 X117.139 Y104.144 E5.92175
G1 X117.139 Y102.409 E6.12778
G1 X117.240 Y102.344 E6.14209
G1 X117.351 Y102.413 E6.15752
G1 X117.736 Y101.789 E6.24465
G1 X117.822 Y101.748 E6.25592
G1 X118.353 Y102.526 E6.36771
G1 X118.055 Y102.612 E6.40451
G1 X118.117 Y102.702 E6.41748
G1 X117.819 Y102.788 E6.45427
G1 X118.567 Y103.885 E6.61193
G1 X118.567 Y104.031 E6.62926
G1 E4.42926 F2400.00000
G92 E0
G1 X114.282 Y99.616 F7800.000
G1 E2.20000 F2400.00000
G1 F3600.000
G1 X114.282 Y95.706 E2.66447
G1 X112.854 Y94.697 E2.87213
G1 X112.854 Y96.275 E3.05950
G1 X112.715 Y96.498 E3.09072
G1 X112.549 Y96.494 E3.11045
G1 X112.403 Y96.236 E3.14573
G1 X111.594 Y96.199 E3.24194
G1 X111.564 Y96.252 E3.24910
G1 X111.426 Y96.250 E3.26556
G1 X111.426 Y94.805 E3.43713
G1 X111.016 Y94.514 E3.49687
G1 X111.020 Y94.798 E3.53063
G1 X110.602 Y94.500 E3.59165
G1 X110.606 Y94.804 E3.62777
G1 X110.188 Y94.512 E3.68839
G1 X110.192 Y94.790 E3.72142
G1 X109.997 Y94.654 E3.74960
G1 X109.997 Y96.128 E3.92460
G1 X108.569 Y96.179 E4.09434
G1 X108.569 Y95.596 E4.16357
G1 X108.549 Y95.595 E4.16603
G1 X108.364 Y94.938 E4.24703
G1 X107.744 Y94.733 E4.32453
G1 X107.814 Y94.564 E4.34631
G1 X107.465 Y94.641 E4.38878
G1 X107.141 Y94.533 E4.42932
G1 X107.141 Y98.736 E4.92845
G1 X106.935 Y98.824 E4.95496
G1 X106.471 Y98.976 E5.01306
G1 X105.713 Y98.976 E5.10310
G1 X105.713 Y94.070 E5.68584
G1 X104.846 Y93.909 E5.79054
G1 X104.846 Y92.820 E5.91988
G1 X104.284 Y92.628 E5.99037
G1 X104.284 Y99.046 E6.75266
G1 X102.856 Y99.063 E6.92231
G1 X102.856 Y95.852 E7.30374
G1 X101.660 Y95.818 E7.44588
G1 X101.644 Y96.052 E7.47378
G1 X101.479 Y96.056 E7.49342
G1 X101.479 Y97.016 E7.60735
G1 X101.428 Y97.016 E7.61343
G1 X101.428 Y100.829 E8.06636
G1 X101.335 Y100.871 E8.07839
G1 X99.999 Y100.884 E8.23706
G1 X99.999 Y97.015 E8.69654
G1 X98.571 Y97.014 E8.86618
G1 X98.571 Y100.829 E9.31930
G1 X97.143 Y100.126 E9.50838
G1 X97.143 Y95.852 E10.01602
G1 X97.143 Y95.126 F7800.000
G1 F3600.000
G1 X97.143 Y94.570 E10.08203
G1 X97.389 Y94.521 E10.11183
G1 X97.143 Y95.126 E10.18933
G1 E7.98933 F2400.00000
G92 E0
G1 X90.001 Y100.795 F7800.000
G1 E2.20000 F2400.00000
G1 F3600.000
G1 X90.001 Y99.777 E2.32098
G1 X88.841 Y99.756 E2.45877
G1 X88.573 Y99.423 E2.50950
G1 X88.573 Y105.195 E3.19499
G1 X87.971 Y105.045 E3.26867
G1 X87.144 Y104.777 E3.37187
G1 X87.144 Y103.172 E3.56244
G1 X86.829 Y103.115 E3.60052
G1 X85.716 Y102.792 E3.73812
G1 X85.716 Y104.313 E3.91870
G1 X84.288 Y103.858 E4.09674
G1 X84.288 Y102.514 E4.25631
G1 X83.875 Y102.351 E4.30908
G1 X83.827 Y102.421 E4.31921
G1 X83.312 Y102.541 E4.38189
G1 X82.859 Y102.409 E4.43791
G1 X82.859 Y104.130 E4.64226
G1 X81.813 Y104.373 E4.76986
G1 X81.996 Y104.104 E4.80841
G1 X81.573 Y104.203 E4.86001
G1 X81.755 Y103.934 E4.89857
G1 X81.431 Y104.010 E4.93811
G1 X81.431 Y103.888 E4.95261
G1 E2.75261 F2400.00000
G92 E0
G1 X90.001 Y103.140 F7800.000
G1 E2.20000 F2400.00000
G1 F3600.000
G1 X90.001 Y105.706 E2.50483
G1 X91.429 Y106.170 E2.68318
G1 X91.429 Y104.728 E2.85447
G1 X91.825 Y103.362 E3.02327
G1 X92.427 Y103.603 E3.10033
G1 X92.398 Y103.704 E3.11279
G1 X92.858 Y103.885 E3.17146
G1 X92.858 Y106.594 E3.49325
G1 X93.521 Y106.765 E3.57456
G1 X94.286 Y106.746 E3.66547
G1 X94.286 Y105.025 E3.86987
G1 X95.590 Y105.470 E4.03346
G1 X95.596 Y105.451 E4.03576
G1 X95.714 Y105.487 E4.05049
G1 X95.714 Y106.076 E4.12035
G1 E1.92035 F2400.00000
G92 E0
G1 X98.571 Y105.677 F7800.000
G1 E2.20000 F2400.00000
G1 F3600.000
G1 X98.571 Y106.421 E2.28838
G1 X99.141 Y106.353 E2.35655
G1 X99.225 Y106.892 E2.42126
G1 X99.999 Y106.677 E2.51672
G1 X99.999 Y105.960 E2.60193
G1 X100.793 Y105.938 E2.69626
G1 X101.041 Y105.831 E2.72838
G1 X101.149 Y105.809 E2.74142
G1 X101.428 Y105.677 E2.77803
G1 X101.428 Y106.695 E2.89892
G1 E0.69892 F2400.00000
G92 E0
G1 X109.997 Y101.175 F7800.000
G1 E2.20000 F2400.00000
G1 F3600.000
G1 X109.997 Y99.777 E2.36611
G1 E0.16611 F2400.00000
G92 E0
G1 X112.854 Y101.483 F7800.000
G1 E2.20000 F2400.00000
G1 F3600.000
G1 X112.854 Y98.854 E2.51228
G1 X112.403 Y99.019 E2.56938
G1 X112.395 Y98.886 E2.58516
G1 X112.277 Y98.928 E2.60004
G1 X112.212 Y98.927 E2.60770
G1 X112.146 Y98.975 E2.61738
G1 X111.638 Y99.154 E2.68142
G1 X111.426 Y99.421 E2.72188
G1 X111.426 Y102.491 E3.08654
G1 X110.819 Y103.246 E3.20159
G1 X111.426 Y103.205 E3.27387
M104 S220 ; set temperature
M140 S60 ; set bed temperature
G1 Z0.700 F7800.000
G1 E1.07387 F2400.00000
G92 E0
G1 X102.364 Y99.361 F7800.000
G1 E2.20000 F2400.00000
G1 F4800.000
G1 X102.364 Y97.826 E2.27193
G1 X101.982 Y97.673 E2.29122
G1 X101.982 Y99.513 E2.37742
G1 X101.600 Y99.665 E2.39669
G1 X101.600 Y97.520 E2.49717
G1 X101.278 Y97.391 E2.51342
G1 X101.217 Y97.411 E2.51639
G1 X101.217 Y99.817 E2.62909
G1 X100.950 Y99.923 E2.64254
G1 X100.835 Y99.799 E2.65048
G1 X100.835 Y97.539 E2.75635
G1 X100.652 Y97.600 E2.76539
G1 X100.453 Y97.799 E2.77859
G1 X100.453 Y99.387 E2.85299
G1 X100.071 Y98.975 E2.87930
G1 X100.071 Y98.181 E2.91651
G1 X99.688 Y98.563 E2.94183
G1 E0.74183 F2400.00000
G92 E0
G1 X99.999 Y100.672 F7800.000
G1 E2.20000 F2400.00000
G1 F4800.000
G1 X98.027 Y98.533 E2.33632
G1 X99.333 Y97.226 E2.42289
G1 X98.308 Y97.226 E2.47093
G1 X98.308 Y96.263 E2.51605
G1 X98.156 Y96.259 E2.52318
G1 X98.141 Y96.035 E2.53367
G1 X97.113 Y96.065 E2.58186
G1 X97.113 Y98.851 E2.71242
G1 X95.703 Y98.834 E2.77847
G1 X95.572 Y98.764 E2.78547
G1 X94.227 Y98.765 E2.84848
G1 X94.227 Y94.303 E3.05749
G1 X91.937 Y95.040 E3.17018
G1 X91.715 Y95.794 E3.20703
G1 X91.340 Y95.812 E3.22459
G1 X91.340 Y95.966 E3.23179
G1 X88.798 Y95.861 E3.35098
G1 X88.807 Y96.031 E3.35896
G1 X88.553 Y96.035 E3.37083
G1 X88.524 Y95.982 E3.37364
G1 X88.454 Y95.985 E3.37694
G1 X88.454 Y95.150 E3.41609
G1 X88.348 Y95.225 E3.42220
G1 X88.352 Y94.941 E3.43553
G1 X87.934 Y95.239 E3.45960
G1 X87.939 Y94.954 E3.47294
G1 X87.520 Y95.252 E3.49701
G1 X87.525 Y94.967 E3.51034
G1 X87.165 Y95.224 E3.53104
G1 X87.179 Y94.932 E3.54472
G1 X85.770 Y95.935 E3.62578
G1 X85.568 Y95.884 E3.63554
G1 X85.568 Y99.188 E3.79031
G1 X85.551 Y99.173 E3.79137
G1 X84.998 Y99.260 E3.81758
G1 X84.558 Y98.120 E3.87483
G1 X84.599 Y96.832 E3.93523
G1 X84.780 Y96.582 E3.94965
G1 X85.118 Y95.772 E3.99080
G1 X85.568 Y95.884 E4.01252
G1 E1.81252 F2400.00000
G92 E0
G1 X88.454 Y99.613 F7800.000
G1 E2.20000 F2400.00000
G1 F4800.000
G1 X88.454 Y102.006 E2.31210
G1 E0.11210 F2400.00000
G92 E0
G1 X82.681 Y102.642 F7800.000
G1 E2.20000 F2400.00000
G1 F4800.000
G1 X82.681 Y103.954 E2.26146
G1 X84.094 Y103.626 E2.32940
G1 X84.369 Y103.653 E2.34233
G1 X85.568 Y104.042 E2.40139
G1 X85.568 Y102.967 E2.45174
G1 X86.121 Y103.143 E2.47896
G1 X87.038 Y103.377 E2.52326
G1 X87.604 Y103.415 E2.54987
G1 X88.454 Y103.396 E2.58968
G1 X88.454 Y104.947 E2.66238
G1 X89.003 Y105.085 E2.68892
G1 X88.993 Y105.156 E2.69231
G1 X91.340 Y105.918 E2.80790
G1 X91.340 Y105.024 E2.84980
G1 X91.489 Y105.283 E2.86378
G1 X91.963 Y103.646 E2.94361
G1 X92.170 Y103.729 E2.95408
G1 X92.141 Y103.830 E2.95905
G1 X92.700 Y104.050 E2.98718
G1 X92.752 Y104.181 E2.99376
G1 X93.856 Y104.621 E3.04946
G1 X93.741 Y105.063 E3.07084
G1 X94.227 Y105.229 E3.09489
G1 X94.227 Y106.536 E3.15612
G1 E0.95612 F2400.00000
G92 E0
G1 X99.999 Y106.458 F7800.000
G1 E2.20000 F2400.00000
G1 F4800.000
G1 X100.553 Y106.611 E2.22691
G1 X100.599 Y106.387 E2.23760
G1 X101.356 Y106.473 E2.27330
G1 X101.426 Y106.291 E2.28246
G1 X101.812 Y105.806 E2.31147
G1 X101.895 Y105.743 E2.31639
G1 X101.815 Y105.736 E2.32019
G1 X101.676 Y105.868 E2.32918
G1 X101.571 Y105.837 E2.33435
G1 X101.215 Y106.011 E2.35290
G1 X101.106 Y106.034 E2.35814
G1 X100.840 Y106.149 E2.37169
G1 X99.999 Y106.172 E2.41110
G1 X99.999 Y106.458 E2.42450
G1 X102.463 Y106.028 F7800.000
G1 F4800.000
G1 X102.857 Y104.676 E2.49050
G1 X101.932 Y104.913 E2.53526
G1 X101.879 Y105.170 E2.54756
G1 X101.609 Y105.144 E2.56030
G1 X101.522 Y105.228 E2.56593
G1 X101.484 Y105.216 E2.56779
G1 X101.233 Y105.377 E2.58178
G1 X100.714 Y105.583 E2.60793
G1 X99.998 Y105.603 E2.64150
G1 X99.285 Y105.583 E2.67492
G1 X98.766 Y105.377 E2.70107
G1 X98.514 Y105.216 E2.71506
G1 X98.482 Y105.226 E2.71663
G1 X98.394 Y105.144 E2.72229
G1 X98.142 Y105.168 E2.73414
G1 X98.080 Y104.917 E2.74627
G1 X97.141 Y104.676 E2.79168
G1 X97.535 Y106.028 E2.85768
G1 X97.788 Y106.218 E2.87249
G1 X98.269 Y106.816 E2.90843
G1 X98.841 Y106.748 E2.93543
