; generated by Slic3r 1.3.1-dev (Build 18ddd3a36dc69d81fb9b7440498bff9e1dde8b7e) on 2022-10-04 at 19:27:02

; external perimeters extrusion width = 0.44mm (2.90mm^3/s)
; perimeters extrusion width = 0.56mm (7.54mm^3/s)
; infill extrusion width = 0.50mm (8.93mm^3/s)
; solid infill extrusion width = 0.56mm (2.51mm^3/s)
; top infill extrusion width = 0.56mm (1.88mm^3/s)
; support material extrusion width = 0.44mm (0.00mm^3/s)

M107
G92 E0
M190 S65 ; set bed temperature and wait for it to be reached
M104 S225 ; set temperature
G28 ; home all axes
G1 Z5 F5000 ; lift nozzle

; Filament gcode

M109 S225 ; set temperature and wait for it to be reached
G21 ; set units to millimeters
G90 ; use absolute coordinates
M82 ; use absolute distances for extrusion
G92 E0
G1 Z0.400 F7800.000
G1 E-2.20000 F2400.00000
G92 E0
G1 X84.457 Y90.434 F7800.000
G1 E2.20000 F2400.00000
G1 F3600.000
G1 X85.370 Y89.773 E2.33397
G1 X87.319 Y88.751 E2.59530
G1 X91.495 Y87.240 E3.12277
G1 X92.047 Y87.062 E3.19159
G1 X95.262 Y86.151 E3.58851
G1 X97.496 Y85.842 E3.85628
G1 X102.481 Y85.850 E4.44829
G1 X104.591 Y86.132 E4.70114
G1 X107.855 Y87.014 E5.10266
G1 X108.537 Y87.231 E5.18767
G1 X112.713 Y88.764 E5.71607
G1 X114.628 Y89.773 E5.97312
G1 X115.547 Y90.438 E6.10781
G1 X117.804 Y92.986 E6.51215
G1 X118.236 Y93.762 E6.61753
G1 X120.640 Y98.415 E7.23952
G1 X121.242 Y99.941 E7.43446
G1 X121.779 Y101.844 E7.66928
G1 X122.079 Y104.371 E7.97146
G1 X121.584 Y106.867 E8.27365
G1 X120.343 Y109.088 E8.57583
G1 X118.477 Y110.818 E8.87802
G1 X114.989 Y112.130 E9.32064
G1 X105.527 Y113.356 E10.45376
G1 X104.842 Y113.416 E10.53547
G1 X104.291 Y113.433 E10.60091
G1 X96.806 Y113.437 E11.48986
G1 X95.159 Y113.416 E11.68548
G1 X94.444 Y113.352 E11.77074
G1 X85.004 Y112.092 E12.90184
G1 X82.566 Y111.365 E13.20403
G1 X80.471 Y109.921 E13.50622
G1 X78.924 Y107.901 E13.80840
G1 X78.075 Y105.502 E14.11059
G1 X78.228 Y101.873 E14.54197
G1 X78.739 Y100.004 E14.77210
G1 X79.361 Y98.410 E14.97537
G1 X81.905 Y93.505 E15.63158
G1 X82.195 Y92.991 E15.70165
G1 X84.417 Y90.479 E16.09991
G1 X84.880 Y91.009 F7800.000
G1 F3600.000
G1 X85.784 Y90.355 E16.23245
G1 X87.562 Y89.423 E16.47086
G1 X91.739 Y87.911 E16.99833
G1 X92.242 Y87.749 E17.06111
G1 X95.457 Y86.838 E17.45804
G1 X97.495 Y86.556 E17.70232
G1 X102.479 Y86.565 E18.29433
G1 X104.404 Y86.822 E18.52500
G1 X107.668 Y87.703 E18.92652
G1 X108.291 Y87.901 E19.00408
G1 X112.467 Y89.434 E19.53248
G1 X114.214 Y90.355 E19.76698
G1 X115.123 Y91.013 E19.90024
G1 X117.182 Y93.338 E20.26911
G1 X117.601 Y94.090 E20.37132
G1 X120.005 Y98.742 E20.99331
G1 X120.555 Y100.135 E21.17116
G1 X121.092 Y102.038 E21.40597
G1 X121.360 Y104.453 E21.69451
G1 X120.835 Y106.825 E21.98306
G1 X119.573 Y108.901 E22.27160
G1 X117.708 Y110.458 E22.56015
G1 X114.897 Y111.422 E22.91304
G1 X105.436 Y112.648 E24.04616
G1 X104.810 Y112.702 E24.12071
G1 X104.289 Y112.719 E24.18267
G1 X96.809 Y112.723 E25.07105
G1 X95.191 Y112.702 E25.26317
G1 X94.539 Y112.644 E25.34095
G1 X85.099 Y111.384 E26.47206
G1 X82.776 Y110.673 E26.76060
G1 X80.806 Y109.250 E27.04915
G1 X79.401 Y107.268 E27.33769
G1 X78.711 Y104.939 E27.62624
G1 X78.917 Y102.061 E27.96881
G1 X79.428 Y100.192 E28.19894
G1 X79.996 Y98.738 E28.38438
G1 X82.402 Y94.088 E29.00612
G1 X82.817 Y93.341 E29.10764
G1 X84.841 Y91.054 E29.47035
G1 X85.304 Y91.584 F7800.000
G1 F3600.000
G1 X86.199 Y90.937 E29.60144
G1 X87.805 Y90.094 E29.81693
G1 X91.982 Y88.583 E30.34441
G1 X92.436 Y88.436 E30.40115
G1 X95.652 Y87.525 E30.79808
G1 X97.493 Y87.271 E31.01888
G1 X102.478 Y87.279 E31.61089
G1 X104.218 Y87.511 E31.81938
G1 X107.482 Y88.393 E32.22090
G1 X108.045 Y88.572 E32.29100
G1 X112.221 Y90.105 E32.81940
G1 X113.800 Y90.937 E33.03136
G1 X114.699 Y91.588 E33.16319
G1 X116.561 Y93.689 E33.49660
G1 X116.967 Y94.417 E33.59563
G1 X119.371 Y99.070 E34.21762
G1 X119.868 Y100.329 E34.37837
G1 X120.404 Y102.232 E34.61318
G1 X120.640 Y104.529 E34.88741
G1 X120.083 Y106.770 E35.16163
G1 X118.801 Y108.690 E35.43586
G1 X116.943 Y110.061 E35.71008
G1 X114.806 Y110.713 E35.97552
G1 X105.344 Y111.940 E37.10864
G1 X104.779 Y111.989 E37.17602
G1 X103.187 Y112.009 E37.36500
G1 X95.712 Y112.005 E38.25284
G1 X95.223 Y111.989 E38.31094
G1 X94.633 Y111.937 E38.38124
G1 X85.193 Y110.676 E39.51235
G1 X82.991 Y109.981 E39.78657
G1 X81.155 Y108.582 E40.06080
G1 X79.901 Y106.643 E40.33502
G1 X79.378 Y104.394 E40.60925
G1 X79.606 Y102.250 E40.86529
G1 X80.117 Y100.381 E41.09542
G1 X80.630 Y99.066 E41.26304
G1 X83.036 Y94.417 E41.88477
G1 X83.439 Y93.692 E41.98327
G1 X85.265 Y91.629 E42.31042
G1 E40.11042 F2400.00000
G92 E0
G1 X90.001 Y96.910 F7800.000
G1 E2.20000 F2400.00000
G1 F3600.000
G1 X89.580 Y97.217 E2.26189
G1 X89.489 Y97.435 E2.28990
G1 X89.348 Y97.629 E2.31845
G1 X89.176 Y100.110 E2.61380
G1 X88.896 Y100.165 E2.64761
G1 X88.746 Y100.475 E2.68860
G1 X89.405 Y100.846 E2.77842
G1 X89.272 Y100.385 E2.83545
G1 X90.001 Y99.901 E2.93933
G1 X90.001 Y96.910 E3.29458
G1 X90.206 Y96.764 E3.32445
G1 X90.574 Y96.762 E3.36814
G1 X90.711 Y96.967 E3.39746
G1 X91.011 Y96.754 E3.44121
G1 X91.106 Y96.752 E3.45248
G1 X91.126 Y96.725 E3.45645
G1 X91.429 Y96.723 E3.49253
G1 X91.429 Y97.113 E3.53886
G1 X91.591 Y97.392 E3.57720
G1 X91.811 Y97.386 E3.60333
G1 X91.927 Y97.181 E3.63132
G1 X92.627 Y97.148 E3.71451
G1 X92.622 Y97.042 E3.72714
G1 X92.858 Y97.053 E3.75520
G1 X92.858 Y96.301 E3.84446
G1 X93.891 Y95.589 E3.99356
G1 X93.858 Y96.840 E4.14227
G1 X94.286 Y96.645 E4.19818
G1 X94.286 Y98.941 E4.47084
G1 X94.549 Y99.364 E4.53002
G1 X95.590 Y99.704 E4.66008
G1 X95.714 Y99.705 E4.67483
G1 X95.714 Y95.994 E5.11555
G1 X96.305 Y95.725 E5.19265
G1 X96.159 Y95.229 E5.25397
G1 X97.143 Y94.617 E5.39152
G1 X97.143 Y100.435 E6.08256
G1 E3.88256 F2400.00000
G92 E0
G1 X98.571 Y103.794 F7800.000
G1 E2.20000 F2400.00000
G1 F3600.000
G1 X98.571 Y104.937 E2.33578
G1 X99.150 Y104.937 E2.40461
G1 X99.241 Y104.661 E2.43913
G1 X99.789 Y104.803 E2.50640
G1 X99.999 Y104.803 E2.53134
G1 X99.999 Y104.560 E2.56026
G1 X100.243 Y104.711 E2.59437
G1 X100.252 Y104.403 E2.63104
G1 X100.519 Y104.237 E2.66835
G1 X100.863 Y104.127 E2.71128
G1 X101.130 Y104.003 E2.74621
G1 X101.194 Y104.022 E2.75420
G1 X101.428 Y103.798 E2.79263
G1 X101.428 Y104.937 E2.92795
G1 X102.856 Y104.031 F7800.000
G1 F3600.000
G1 X102.856 Y104.937 E3.03555
G1 X104.284 Y104.933 E3.20519
G1 X104.284 Y103.549 E3.36949
G1 X104.319 Y103.536 E3.37392
G1 X104.420 Y103.662 E3.39298
G1 X104.644 Y103.482 E3.42717
G1 X104.727 Y103.523 E3.43821
G1 X104.785 Y103.454 E3.44891
G1 X105.296 Y103.562 E3.51089
G1 X105.327 Y103.506 E3.51849
G1 X105.363 Y103.496 E3.52293
G1 X105.713 Y103.595 E3.56608
G1 X105.713 Y104.515 E3.67534
G1 X107.141 Y104.049 E3.85379
G1 X107.141 Y102.600 E4.02589
G1 X108.569 Y102.632 E4.19557
G1 X108.569 Y103.585 E4.30872
G1 X109.997 Y103.121 E4.48707
G1 X109.997 Y102.187 E4.59805
G1 X110.390 Y102.057 E4.64715
G1 X110.397 Y101.879 E4.66837
G1 X110.589 Y101.822 E4.69217
G1 X110.610 Y101.852 E4.69659
G1 X111.121 Y101.974 E4.75889
G1 X111.426 Y101.886 E4.79662
G1 X111.426 Y103.086 E4.93911
G1 X112.854 Y103.427 F7800.000
G1 F3600.000
G1 X113.126 Y103.493 E4.97235
G1 X112.854 Y103.094 E5.02970
G1 X112.854 Y103.427 E5.06933
G1 E2.86933 F2400.00000
G92 E0
G1 X108.569 Y102.625 F7800.000
G1 E2.20000 F2400.00000
G1 F3600.000
G1 X108.569 Y102.603 E2.20264
G1 E0.00264 F2400.00000
G92 E0
G1 X108.569 Y100.386 F7800.000
G1 E2.20000 F2400.00000
G1 F3600.000
G1 X108.569 Y99.472 E2.30852
G1 X108.322 Y99.554 E2.33942
G1 X108.273 Y99.521 E2.34644
G1 X107.999 Y99.617 E2.38092
G1 X108.038 Y99.927 E2.41800
G1 X107.492 Y99.947 E2.48289
G1 X107.496 Y99.975 E2.48623
G1 X107.141 Y99.985 E2.52842
G1 X107.141 Y101.478 E2.70565
G1 X106.565 Y102.194 E2.81477
G1 X106.300 Y100.068 E3.06915
G1 X106.429 Y100.007 E3.08618
G1 X107.141 Y99.985 E3.17075
G1 E0.97075 F2400.00000
G92 E0
G1 X109.997 Y99.901 F7800.000
G1 E2.20000 F2400.00000
G1 F3600.000
G1 X109.997 Y96.910 E2.55528
G1 X109.793 Y96.764 E2.58514
G1 X108.893 Y96.752 E2.69202
G1 X108.873 Y96.725 E2.69600
G1 X108.569 Y96.723 E2.73206
G1 X108.569 Y97.156 E2.78349
G1 X108.422 Y97.393 E2.81666
G1 X108.187 Y97.386 E2.84450
G1 X107.791 Y96.685 E2.94022
G1 X108.526 Y96.706 E3.02755
G1 X108.569 Y96.723 E3.03309
G1 X107.141 Y97.053 F7800.000
G1 F3600.000
G1 X107.141 Y96.294 E3.12321
G1 X106.107 Y95.573 E3.27296
G1 X106.129 Y96.398 E3.37099
G1 X105.755 Y96.779 E3.43448
G1 X105.713 Y96.779 E3.43947
G1 X105.713 Y98.940 E3.69612
G1 X105.440 Y99.366 E3.75615
G1 X104.409 Y99.704 E3.88505
G1 X104.284 Y99.705 E3.89987
G1 X104.284 Y96.429 E4.28895
G1 X103.469 Y96.267 E4.38764
G1 X103.776 Y95.228 E4.51623
G1 X102.856 Y94.656 E4.64492
G1 X102.856 Y99.706 E5.24469
G1 X102.175 Y99.705 E5.32553
G1 X102.734 Y100.264 E5.41934
G1 X101.428 Y100.212 E5.57460
G1 X101.428 Y96.967 E5.95993
G1 X100.589 Y96.967 E6.05947
G1 X100.589 Y97.555 E6.12928
G1 X99.999 Y97.555 E6.19938
G1 X99.999 Y100.164 E6.50916
G1 X98.571 Y100.160 E6.67880
G1 X98.571 Y96.967 E7.05801
G1 X98.571 Y96.460 F7800.000
G1 F3600.000
G1 X98.571 Y94.921 E7.24079
G1 X98.952 Y95.109 E7.29130
G1 X98.796 Y95.802 E7.37557
G1 X98.853 Y95.790 E7.38247
G1 X98.571 Y96.460 E7.46880
G1 E5.26880 F2400.00000
G92 E0
G1 X101.428 Y96.436 F7800.000
G1 E2.20000 F2400.00000
G1 F3600.000
G1 X101.428 Y94.892 E2.38343
G1 E0.18343 F2400.00000
G92 E0
G1 X97.143 Y104.937 F7800.000
G1 E2.20000 F2400.00000
G1 F3600.000
G1 X97.143 Y104.032 E2.30757
G1 X95.714 Y103.549 E2.48663
G1 X95.714 Y104.933 E2.65093
G1 X95.579 Y104.927 E2.66703
G1 X95.421 Y104.882 E2.68652
G1 X94.286 Y104.515 E2.82818
G1 X94.286 Y103.593 E2.93771
G1 X93.954 Y103.687 E2.97866
G1 X94.085 Y103.214 E3.03692
G1 X94.063 Y103.174 E3.04238
G1 X94.024 Y103.166 E3.04708
G1 X93.734 Y103.221 E3.08214
G1 X93.382 Y102.610 E3.16587
G1 X93.699 Y100.068 E3.47011
G1 X93.570 Y100.007 E3.48716
G1 X92.858 Y99.986 E3.57174
G1 X92.858 Y104.049 E4.05433
G1 X91.429 Y103.585 E4.23268
G1 X91.429 Y102.603 E4.34933
G1 X91.706 Y102.622 E4.38226
G1 X92.446 Y102.605 E4.47023
G1 X92.520 Y101.555 E4.59518
G1 X91.429 Y101.377 E4.72641
G1 X91.429 Y99.472 E4.95257
G1 E2.75257 F2400.00000
G92 E0
G1 X90.001 Y103.122 F7800.000
G1 E2.20000 F2400.00000
G1 F3600.000
G1 X90.001 Y101.208 E2.42722
G1 X89.831 Y101.203 E2.44742
G1 X89.387 Y101.855 E2.54114
G1 X88.875 Y101.974 E2.60354
G1 X88.573 Y101.886 E2.64089
G1 X88.573 Y103.076 E2.78225
G1 X87.144 Y103.408 E2.95640
G1 X87.144 Y103.096 E2.99337
M104 S220 ; set temperature
M140 S60 ; set bed temperature
G1 Z0.700 F7800.000
G1 E0.79337 F2400.00000
G92 E0
G1 X99.424 Y97.967 F7800.000
G1 E2.20000 F2400.00000
G1 F3075.542
G1 X99.828 Y97.967 E2.21894
G1 X99.828 Y99.617 E2.29625
G1 X99.988 Y99.789 E2.30724
G1 X100.232 Y100.115 E2.32634
G1 X100.232 Y97.967 E2.42699
G1 X100.352 Y97.967 E2.43259
G1 X100.565 Y97.753 E2.44671
G1 X100.637 Y97.782 E2.45032
G1 X100.637 Y100.342 E2.57024
G1 X101.041 Y100.180 E2.59064
G1 X101.041 Y97.944 E2.69541
G1 X101.445 Y98.105 E2.71581
G1 X101.445 Y100.018 E2.80544
G1 X101.849 Y99.857 E2.82583
G1 X101.849 Y98.501 E2.88936
G1 X102.254 Y98.905 E2.91616
G1 X102.886 Y97.845 F7800.000
G1 F3075.542
G1 X102.886 Y94.923 E3.05303
G1 X103.527 Y95.323 E3.08843
G1 X103.200 Y96.429 E3.14247
G1 X104.591 Y96.705 E3.20889
G1 X104.947 Y96.989 E3.23023
G1 X105.679 Y96.991 E3.26451
G1 X105.705 Y98.532 E3.33672
G1 X105.303 Y99.188 E3.37278
G1 X104.375 Y99.493 E3.41854
G1 X103.299 Y99.494 E3.46892
G1 X103.793 Y98.753 E3.51064
G1 X102.886 Y97.845 E3.57079
G1 E1.37079 F2400.00000
G92 E0
G1 X100.092 Y97.339 F7800.000
G1 E2.20000 F2400.00000
G1 F3075.542
G1 X100.414 Y97.017 E2.22133
G1 X101.813 Y97.577 E2.29193
G1 X103.061 Y98.825 E2.37465
G1 X102.566 Y99.568 E2.41645
G1 X102.566 Y100.246 E2.44822
G1 X101.728 Y100.581 E2.49051
G1 X103.632 Y100.657 E2.57976
G1 X103.038 Y100.063 E2.61916
G1 X104.467 Y100.061 E2.68613
G1 X105.753 Y99.639 E2.74953
G1 X105.716 Y99.598 E2.75213
G1 X106.050 Y99.076 E2.78114
G1 X106.273 Y98.684 E2.80226
G1 X106.258 Y97.448 E2.86016
G1 X106.973 Y97.418 E2.89369
G1 X106.972 Y97.500 E2.89754
G1 X107.599 Y97.516 E2.92690
G1 X107.724 Y97.292 E2.93894
G1 X107.978 Y97.742 E2.96315
G1 X108.113 Y97.748 E2.96947
G1 X108.168 Y97.769 E2.97221
G1 X108.239 Y97.751 E2.97566
G1 X108.614 Y97.760 E2.99323
G1 X108.742 Y97.553 E3.00461
G1 X108.959 Y97.936 E3.02521
G1 X109.081 Y98.019 E3.03215
G1 X109.078 Y98.576 E3.05826
G1 X108.808 Y99.000 E3.08179
G1 X108.371 Y99.158 E3.10355
G1 X108.315 Y99.121 E3.10672
G1 X108.275 Y99.120 E3.10856
G1 X108.218 Y99.162 E3.11186
G1 X107.609 Y99.376 E3.14214
G1 X107.635 Y99.584 E3.15196
G1 X107.077 Y99.604 E3.17809
G1 X107.081 Y99.630 E3.17931
G1 X106.342 Y99.652 E3.21394
G1 X105.936 Y99.846 E3.23505
G1 X105.908 Y99.815 E3.23702
G1 X106.242 Y102.486 E3.36312
G1 X106.045 Y102.823 E3.38141
G1 X105.750 Y102.767 E3.39545
G1 X105.712 Y102.774 E3.39730
G1 X105.576 Y103.014 E3.41024
G1 X105.481 Y102.997 E3.41475
G1 X105.530 Y103.172 E3.42324
G1 X105.197 Y103.077 E3.43944
G1 X105.159 Y103.084 E3.44124
G1 X105.113 Y103.158 E3.44535
G1 X104.600 Y103.060 E3.46983
G1 X104.475 Y103.160 E3.47729
G1 X104.439 Y103.114 E3.48004
G1 X103.030 Y103.595 E3.54979
G1 X102.670 Y103.697 E3.56732
G1 X102.457 Y103.793 E3.57825
G1 X102.319 Y103.832 E3.58497
G1 X101.872 Y104.301 E3.61533
G1 X101.816 Y103.295 E3.66254
G1 X101.772 Y103.308 E3.66470
G1 X101.777 Y103.327 E3.66563
G1 X101.302 Y103.423 E3.68830
G1 X101.097 Y103.620 E3.70162
G1 X101.047 Y103.605 E3.70410
G1 X100.920 Y103.713 E3.71192
G1 X100.735 Y103.794 E3.72137
G1 X100.479 Y103.880 E3.73401
G1 X100.417 Y103.880 E3.73692
G1 X100.114 Y104.068 E3.75361
G1 X100.104 Y103.880 E3.76243
G1 X99.910 Y103.880 E3.77152
G1 X99.904 Y104.080 E3.78092
G1 X99.582 Y103.880 E3.79871
G1 X99.519 Y103.880 E3.80162
G1 X99.079 Y103.713 E3.82368
G1 X98.952 Y103.605 E3.83151
G1 X98.907 Y103.618 E3.83369
G1 X98.695 Y103.423 E3.84721
G1 X98.223 Y103.327 E3.86977
G1 X98.228 Y103.308 E3.87071
G1 X98.184 Y103.295 E3.87284
G1 X98.154 Y104.330 E3.92135
G1 X97.680 Y103.832 E3.95356
G1 X97.540 Y103.793 E3.96038
G1 X97.329 Y103.697 E3.97124
G1 X96.966 Y103.594 E3.98891
G1 X95.394 Y103.057 E4.06672
G1 X94.853 Y103.149 E4.09247
G1 X94.807 Y103.081 E4.09632
G1 X94.773 Y103.084 E4.09791
G1 X94.468 Y103.170 E4.11281
G1 X94.517 Y102.991 E4.12154
G1 X94.383 Y103.015 E4.12794
G1 X94.250 Y102.775 E4.14081
G1 X94.211 Y102.767 E4.14267
G1 X93.917 Y102.823 E4.15671
G1 X93.751 Y102.536 E4.17224
G1 X94.093 Y99.797 E4.30155
G1 X94.053 Y99.842 E4.30436
G1 X93.656 Y99.652 E4.32496
G1 X92.932 Y99.631 E4.35890
G1 X92.935 Y99.605 E4.36011
G1 X92.364 Y99.584 E4.38691
G1 X92.390 Y99.376 E4.39672
G1 X91.780 Y99.162 E4.42701
G1 X91.723 Y99.120 E4.43030
G1 X91.684 Y99.121 E4.43214
G1 X91.627 Y99.158 E4.43531
G1 X91.175 Y98.995 E4.45782
G1 X91.107 Y98.850 E4.46536
G1 X90.919 Y98.576 E4.48090
G1 X90.915 Y98.019 E4.50701
G1 X91.041 Y97.935 E4.51409
G1 X91.264 Y97.540 E4.53534
G1 X91.392 Y97.759 E4.54724
G1 X91.769 Y97.750 E4.56492
G1 X91.831 Y97.769 E4.56796
G1 X91.887 Y97.748 E4.57076
G1 X92.020 Y97.742 E4.57702
G1 X92.141 Y97.529 E4.58850
G1 X93.002 Y97.501 E4.62887
G1 X92.998 Y97.417 E4.63283
G1 X93.740 Y97.448 E4.66763
G1 X93.726 Y98.684 E4.72553
G1 X94.273 Y99.596 E4.77534
G1 X94.236 Y99.637 E4.77795
G1 X95.532 Y100.061 E4.84186
G1 X96.104 Y100.063 E4.86863
G1 X96.091 Y100.607 E4.89411
G1 X96.976 Y100.768 E4.93624
G1 X96.972 Y100.804 E4.93793
G1 X97.619 Y100.884 E4.96849
G1 X98.258 Y100.993 E4.99886
G1 X98.268 Y100.964 E5.00030
G1 X98.677 Y101.014 E5.01961
G1 X98.738 Y100.519 E5.04301
G1 X99.753 Y100.521 E5.09055
G1 X99.505 Y100.192 E5.10987
G1 X99.233 Y99.899 E5.12860
G1 X98.631 Y97.339 E5.25180
G1 X100.092 Y97.339 E5.32023
G1 E3.12023 F2400.00000
G92 E0
G1 X98.139 Y94.309 F7800.000
G1 E2.20000 F2400.00000
G1 F3075.542
G1 X97.482 Y93.985 E2.23432
G1 X95.740 Y95.069 E2.33047
G1 X95.875 Y95.528 E2.35287
G1 X94.230 Y96.278 E2.43758
G1 X94.267 Y94.896 E2.50236
G1 X92.190 Y96.328 E2.62053
G1 X90.945 Y96.369 E2.67893
G1 X90.804 Y96.463 E2.68686
G1 X90.763 Y96.401 E2.69032
G1 X90.091 Y96.408 E2.72180
G1 X89.289 Y96.988 E2.76819
G1 X89.176 Y97.259 E2.78192
