; generated by Slic3r 1.3.1-dev (Build 18ddd3a36dc69d81fb9b7440498bff9e1dde8b7e) on 2022-10-04 at 20:55:17

; external perimeters extrusion width = 0.44mm (1.84mm^3/s)
; perimeters extrusion width = 0.56mm (4.75mm^3/s)
; infill extrusion width = 0.50mm (5.61mm^3/s)
; solid infill extrusion width = 0.56mm (1.58mm^3/s)
; top infill extrusion width = 0.56mm (1.19mm^3/s)
; support material extrusion width = 0.44mm (0.00mm^3/s)

M107
G92 E0
M190 S65 ; set bed temperature and wait for it to be reached
M104 S225 ; set temperature
G28 ; home all axes
G1 Z5 F5000 ; lift nozzle

; Filament gcode

M109 S225 ; set temperature and wait for it to be reached
G21 ; set units to millimeters
G90 ; use absolute coordinates
M82 ; use absolute distances for extrusion
G92 E0
G1 Z0.400 F3600.000
G1 E-2.00000 F2400.00000
G92 E0
G1 X77.397 Y92.699 F3600.000
G1 E2.00000 F2400.00000
G1 F1800.000
G1 X80.170 Y90.772 E2.40103
G1 X93.807 Y85.746 E4.12709
G1 X96.129 Y85.332 E4.40721
G1 X103.771 Y85.332 E5.31480
G1 X106.079 Y85.741 E5.59319
G1 X119.809 Y90.767 E7.32968
G1 X121.808 Y91.922 E7.60391
G1 X123.299 Y93.685 E7.87813
G1 X124.214 Y96.945 E8.28023
G1 X124.340 Y103.640 E9.07547
G1 X123.986 Y105.921 E9.34970
G1 X122.880 Y107.948 E9.62392
G1 X121.153 Y109.481 E9.89815
G1 X119.615 Y110.180 E10.09878
G1 X108.584 Y113.599 E11.47039
G1 X106.758 Y113.898 E11.69013
G1 X101.149 Y114.034 E12.35650
G1 X99.004 Y114.057 E12.61127
G1 X93.211 Y113.897 E13.29956
G1 X91.415 Y113.599 E13.51580
G1 X80.384 Y110.182 E14.88726
G1 X78.329 Y109.130 E15.16148
G1 X76.752 Y107.444 E15.43571
G1 X75.839 Y105.323 E15.70993
G1 X75.658 Y103.647 E15.91006
G1 X75.779 Y96.950 E16.70558
G1 X76.217 Y94.683 E16.97980
G1 X77.367 Y92.750 E17.24690
G1 E15.24690 F2400.00000
G92 E0
G1 X88.573 Y95.816 F3600.000
G1 E2.00000 F2400.00000
G1 F1800.000
G1 X88.583 Y96.249 E2.05152
G1 X88.738 Y96.242 E2.07003
G1 X88.743 Y96.070 E2.09043
G1 X90.001 Y96.128 E2.24000
G1 X90.001 Y95.546 E2.30906
G1 X90.992 Y95.517 E2.42686
G1 X91.197 Y95.742 E2.46296
G1 X91.429 Y95.741 E2.49053
G1 X91.429 Y96.179 E2.54250
G1 X91.761 Y96.185 E2.58186
G1 X91.737 Y97.728 E2.76514
G1 X92.242 Y98.565 E2.88133
G1 X92.858 Y98.767 E2.95825
G1 X92.858 Y95.607 E3.33348
G1 X93.236 Y95.300 E3.39142
G1 X94.286 Y95.087 E3.51859
G1 X94.286 Y98.903 E3.97181
G1 X95.092 Y98.057 E4.11065
G1 X95.071 Y98.888 E4.20940
G1 X95.714 Y98.936 E4.28598
G1 X95.714 Y94.801 E4.77702
G1 X97.143 Y94.520 E4.94992
G1 X97.143 Y94.980 E5.00458
G1 X97.143 Y96.026 F3600.000
G1 F1800.000
G1 X97.143 Y99.606 E5.42974
G1 X98.571 Y99.618 E5.59938
G1 X98.571 Y96.974 E5.91341
G1 X99.999 Y96.975 E6.08304
G1 X99.999 Y99.629 E6.39823
G1 X100.909 Y99.630 E6.50632
G1 X100.996 Y99.723 E6.52138
G1 X101.228 Y99.630 E6.55103
G1 X101.428 Y100.145 E6.61655
G1 X101.428 Y96.975 E6.99295
G1 X101.495 Y96.975 E7.00099
G1 X101.495 Y96.025 E7.11381
G1 X101.530 Y96.041 E7.11838
G1 X102.856 Y96.026 E7.27582
G1 X102.856 Y98.967 E7.62507
G1 X103.733 Y98.967 E7.72920
G1 X104.284 Y98.936 E7.79481
G1 X104.284 Y94.802 E8.28578
G1 X105.713 Y95.088 E8.45879
G1 X105.713 Y99.234 E8.95122
G1 X107.141 Y98.766 E9.12974
G1 X107.141 Y95.607 E9.50491
G1 X107.306 Y95.739 E9.53000
G1 X108.569 Y95.741 E9.68001
G1 X108.569 Y96.179 E9.73199
G1 X109.997 Y96.128 E9.90173
G1 X109.997 Y95.546 E9.97077
G1 X111.118 Y95.602 E10.10404
G1 X111.426 Y95.816 E10.14859
G1 X111.426 Y96.242 E10.19919
G1 E8.19919 F2400.00000
G92 E0
G1 X104.284 Y93.271 F3600.000
G1 E2.00000 F2400.00000
G1 F1800.000
G1 X104.284 Y92.663 E2.07216
G1 X104.753 Y92.824 E2.13098
G1 X104.757 Y93.668 E2.23128
G1 X104.284 Y93.271 E2.30465
G1 X102.856 Y93.160 F3600.000
G1 F1800.000
G1 X102.856 Y92.511 E2.38171
G1 E0.38171 F2400.00000
G92 E0
G1 X102.856 Y94.520 F3600.000
G1 E2.00000 F2400.00000
G1 F1800.000
G1 X102.856 Y94.954 E2.05160
G1 E0.05160 F2400.00000
G92 E0
G1 X99.999 Y92.595 F3600.000
G1 E2.00000 F2400.00000
G1 F1800.000
G1 X99.999 Y92.499 E2.01145
G1 X98.571 Y92.499 E2.18108
G1 X98.571 Y93.160 E2.25957
G1 X97.143 Y93.159 E2.42921
G1 X97.143 Y92.499 E2.50763
G1 X97.021 Y92.499 E2.52203
G1 X96.819 Y92.403 E2.54858
G1 X96.218 Y92.403 E2.61999
G1 X95.928 Y92.558 E2.65908
G1 X95.714 Y92.631 E2.68590
G1 X95.714 Y93.272 E2.76199
G1 X95.147 Y93.730 E2.84857
G1 X95.146 Y92.827 E2.95580
G1 X95.714 Y92.631 E3.02721
G1 E1.02721 F2400.00000
G92 E0
G1 X98.571 Y105.806 F3600.000
G1 E2.00000 F2400.00000
G1 F1800.000
G1 X98.571 Y106.763 E2.11373
G1 X99.203 Y106.751 E2.18877
G1 X99.225 Y106.892 E2.20575
G1 X99.999 Y106.677 E2.30121
G1 X99.999 Y105.983 E2.38364
G1 X100.658 Y105.950 E2.46195
G1 X100.979 Y105.954 E2.50010
G1 X101.237 Y105.842 E2.53354
G1 X101.428 Y105.805 E2.55659
G1 X101.428 Y106.763 E2.67037
G1 X102.856 Y106.450 F3600.000
G1 F1800.000
G1 X102.401 Y106.783 E2.73730
G1 X102.856 Y106.793 E2.79129
G1 X102.856 Y106.450 E2.83198
G1 X103.012 Y106.335 E2.85505
G1 X103.540 Y105.759 E2.94783
G1 X103.769 Y105.695 E2.97603
G1 X104.051 Y105.555 E3.01345
G1 X104.284 Y105.484 E3.04243
G1 X104.284 Y106.821 E3.20124
G1 X105.713 Y106.832 E3.37088
G1 X105.713 Y105.029 E3.58503
G1 X106.892 Y104.620 E3.73332
G1 X107.141 Y104.673 E3.76347
G1 X107.141 Y106.635 E3.99649
G1 X107.851 Y106.405 E4.08519
G1 X107.844 Y106.351 E4.09165
G1 X108.569 Y106.169 E4.18046
G1 X108.569 Y104.325 E4.39950
G1 X108.652 Y104.177 E4.41958
G1 X109.129 Y104.268 E4.47728
G1 X109.659 Y103.364 E4.60177
G1 X109.887 Y103.210 E4.63448
G1 X109.997 Y103.370 E4.65752
G1 X109.997 Y105.705 E4.93493
G1 X110.345 Y105.593 E4.97828
G1 X110.336 Y105.533 E4.98545
G1 X111.163 Y105.326 E5.08668
G1 X111.426 Y105.240 E5.11950
G1 X111.426 Y103.550 E5.32021
G1 X112.854 Y103.572 E5.48987
G1 X112.854 Y104.709 E5.62481
G1 X113.753 Y104.483 E5.73488
G1 X114.282 Y104.311 E5.80098
G1 X114.282 Y103.359 E5.91412
G1 X114.760 Y103.172 E5.97502
G1 X114.873 Y103.337 E5.99880
G1 X115.463 Y103.478 E6.07083
G1 X115.711 Y103.406 E6.10151
G1 X115.711 Y103.823 E6.15096
G1 E4.15096 F2400.00000
G92 E0
G1 X97.143 Y106.793 F3600.000
G1 E2.00000 F2400.00000
G1 F1800.000
G1 X97.143 Y106.451 E2.04064
G1 X97.001 Y106.353 E2.06106
G1 X96.459 Y105.759 E2.15656
G1 X96.228 Y105.695 E2.18495
G1 X95.948 Y105.555 E2.22221
G1 X95.714 Y105.484 E2.25116
G1 X95.714 Y106.821 E2.40997
G1 X94.286 Y106.832 E2.57961
G1 X94.286 Y105.029 E2.79376
G1 X93.092 Y104.616 E2.94376
G1 X92.858 Y104.660 E2.97215
G1 X92.858 Y106.634 E3.20661
G1 X92.147 Y106.404 E3.29532
G1 X92.155 Y106.350 E3.30179
G1 X91.429 Y106.169 E3.39059
G1 X91.429 Y104.419 E3.59845
G1 X91.291 Y104.178 E3.63149
G1 X90.811 Y104.269 E3.68947
G1 X90.260 Y103.312 E3.82070
G1 X90.111 Y103.210 E3.84208
G1 X90.001 Y103.370 E3.86512
G1 X90.001 Y105.706 E4.14256
G1 X89.654 Y105.593 E4.18591
G1 X89.662 Y105.533 E4.19315
G1 X88.835 Y105.326 E4.29449
G1 X88.573 Y105.241 E4.32719
G1 X88.573 Y103.550 E4.52796
G1 X87.144 Y103.572 E4.69761
G1 X87.144 Y104.709 E4.83254
G1 X86.244 Y104.483 E4.94282
G1 X85.716 Y104.312 E5.00869
G1 X85.716 Y103.359 E5.12192
G1 X85.239 Y103.172 E5.18280
G1 X85.124 Y103.340 E5.20693
G1 X84.530 Y103.477 E5.27933
G1 X84.288 Y103.407 E5.30934
G1 X84.288 Y103.823 E5.35877
G1 X82.964 Y103.533 E5.51973
G1 X83.345 Y102.974 E5.60014
G1 X83.712 Y103.080 E5.64552
G1 X83.754 Y103.070 E5.65063
G1 X84.182 Y103.376 E5.71315
G1 X84.288 Y103.407 E5.72617
M104 S220 ; set temperature
M140 S60 ; set bed temperature
G1 Z0.700 F3600.000
G1 X85.460 Y103.495 F3600.000
G1 F3664.911
G1 X85.323 Y103.443 E5.73304
G1 X85.259 Y103.537 E5.73838
G1 X84.657 Y103.676 E5.76733
G1 X84.859 Y103.721 E5.77700
G1 X84.845 Y103.795 E5.78056
G1 X85.460 Y103.995 E5.81085
G1 X85.460 Y103.495 E5.83427
G1 X86.183 Y103.801 E5.87103
G1 X88.368 Y103.776 E5.97341
G1 X88.368 Y104.940 E6.02797
G1 X88.896 Y105.112 E6.05397
G1 X89.911 Y105.365 E6.10297
G1 X89.900 Y105.439 E6.10645
G1 X91.276 Y105.886 E6.17421
G1 X91.276 Y104.610 E6.23395
G1 X91.399 Y104.822 E6.24543
G1 X91.920 Y104.728 E6.27025
G1 X92.104 Y105.030 E6.28684
G1 X93.076 Y104.845 E6.33323
G1 X94.184 Y105.229 E6.38814
G1 X94.184 Y106.609 E6.45279
G1 E4.45279 F2400.00000
G92 E0
G1 X99.999 Y106.447 F3600.000
G1 E2.00000 F2400.00000
G1 F3664.911
G1 X100.545 Y106.598 E2.02651
G1 X100.560 Y106.523 E2.03006
G1 X101.589 Y106.544 E2.07826
G1 X101.542 Y106.010 E2.10338
G1 X101.305 Y106.055 E2.11466
G1 X101.026 Y106.178 E2.12895
G1 X100.664 Y106.172 E2.14592
G1 X99.999 Y106.206 E2.17708
G1 X99.999 Y106.447 E2.18836
G1 E0.18836 F2400.00000
G92 E0
G1 X105.815 Y105.229 F3600.000
G1 E2.00000 F2400.00000
G1 F3664.911
G1 X104.393 Y105.712 E2.07033
G1 X104.385 Y105.686 E2.07158
G1 X104.134 Y105.763 E2.08390
G1 X103.849 Y105.904 E2.09880
G1 X103.659 Y105.956 E2.10801
G1 X103.164 Y106.500 E2.14246
G1 X103.062 Y106.574 E2.14836
G1 X104.883 Y106.612 E2.23369
G1 X105.815 Y106.609 E2.27733
G1 X105.815 Y105.229 E2.34198
G1 X106.906 Y104.851 E2.39611
G1 X107.839 Y105.047 E2.44078
G1 X108.030 Y104.729 E2.45815
G1 X108.540 Y104.821 E2.48244
G1 X108.723 Y104.505 E2.49954
G1 X108.723 Y105.885 E2.56419
G1 X110.098 Y105.439 E2.63195
G1 X110.088 Y105.366 E2.63541
G1 X111.101 Y105.112 E2.68436
G1 X111.630 Y104.940 E2.71041
G1 X111.630 Y103.776 E2.76495
G1 X113.816 Y103.801 E2.86733
G1 X114.538 Y103.495 E2.90408
G1 X114.538 Y103.994 E2.92746
G1 E0.92746 F2400.00000
G92 E0
G1 X113.048 Y101.689 F3600.000
G1 E2.00000 F2400.00000
G1 F3664.911
G1 X113.123 Y101.250 E2.02086
G1 X112.927 Y101.329 E2.03078
G1 X112.922 Y101.685 E2.04745
G1 X113.048 Y101.689 E2.05340
G1 E0.05340 F2400.00000
G92 E0
G1 X117.627 Y103.767 F3600.000
G1 E2.00000 F2400.00000
G1 F3664.911
G1 X116.773 Y102.514 E2.07104
G1 X116.648 Y102.603 E2.07824
G1 X116.273 Y102.712 E2.09652
G1 X116.166 Y102.686 E2.10166
G1 X115.655 Y103.051 E2.13105
G1 X115.454 Y103.109 E2.14087
G1 X115.090 Y103.022 E2.15840
G1 X114.903 Y102.748 E2.17391
G1 X114.221 Y102.996 E2.20792
G1 X113.698 Y103.221 E2.23459
G1 X111.446 Y103.193 E2.34011
G1 X111.325 Y103.062 E2.34846
G1 X110.201 Y103.035 E2.40116
G1 X109.942 Y102.662 E2.42242
G1 X109.861 Y102.744 E2.42784
G1 X109.829 Y102.817 E2.43153
G1 X109.382 Y103.130 E2.45711
G1 X108.949 Y103.870 E2.49731
G1 X108.467 Y103.778 E2.52028
G1 X108.237 Y104.177 E2.54185
G1 X107.733 Y104.086 E2.56584
G1 X107.554 Y104.395 E2.58257
G1 X106.966 Y104.271 E2.61074
G1 X106.846 Y104.211 E2.61698
G1 X106.743 Y104.294 E2.62318
G1 X104.764 Y104.973 E2.72120
G1 X103.918 Y105.222 E2.76254
G1 X103.640 Y105.361 E2.77709
G1 X103.348 Y105.441 E2.79127
G1 X102.769 Y106.071 E2.83132
G1 X102.167 Y106.512 E2.86629
G1 X102.037 Y105.035 E2.93575
G1 X101.946 Y105.249 E2.94664
G1 X101.700 Y105.228 E2.95819
G1 X101.394 Y105.448 E2.97584
G1 X101.128 Y105.499 E2.98855
G1 X100.904 Y105.596 E2.99999
G1 X99.998 Y105.626 E3.04246
G1 X99.095 Y105.596 E3.08478
G1 X98.871 Y105.499 E3.09619
G1 X98.603 Y105.449 E3.10899
G1 X98.297 Y105.229 E3.12664
G1 X98.053 Y105.249 E3.13813
G1 X97.960 Y105.032 E3.14919
G1 X97.829 Y106.511 E3.21875
G1 X97.239 Y106.082 E3.25293
G1 X96.651 Y105.442 E3.29364
G1 X96.358 Y105.360 E3.30790
G1 X96.081 Y105.222 E3.32240
G1 X95.234 Y104.973 E3.36377
G1 X93.255 Y104.294 E3.46176
G1 X93.130 Y104.194 E3.46928
G1 X93.005 Y104.269 E3.47613
G1 X92.390 Y104.386 E3.50542
G1 X92.213 Y104.085 E3.52176
G1 X91.704 Y104.178 E3.54602
G1 X91.478 Y103.779 E3.56752
G1 X90.994 Y103.871 E3.59060
G1 X90.522 Y103.052 E3.63489
G1 X90.169 Y102.817 E3.65475
G1 X90.138 Y102.744 E3.65844
G1 X90.060 Y102.666 E3.66364
G1 X90.001 Y102.793 E3.67022
G1 X89.939 Y102.829 E3.67355
G1 X89.798 Y103.035 E3.68525
G1 X88.670 Y103.062 E3.73811
G1 X88.546 Y103.193 E3.74656
G1 X86.301 Y103.221 E3.85178
G1 X85.777 Y102.996 E3.87845
G1 X85.095 Y102.748 E3.91245
G1 X84.908 Y103.023 E3.92803
G1 X84.540 Y103.109 E3.94570
G1 X84.341 Y103.051 E3.95545
G1 X83.831 Y102.686 E3.98482
G1 X83.722 Y102.711 E3.99003
G1 X83.350 Y102.603 E4.00820
G1 X83.226 Y102.515 E4.01532
G1 X82.371 Y103.769 E4.08643
G1 X84.190 Y104.167 E4.17367
G1 X84.186 Y104.191 E4.17478
G1 X86.145 Y104.827 E4.27128
G1 X86.772 Y104.983 E4.30154
G1 X86.765 Y105.029 E4.30372
G1 X88.736 Y105.669 E4.40079
G1 X89.264 Y105.801 E4.42629
G1 X89.258 Y105.840 E4.42813
G1 X91.327 Y106.512 E4.53002
G1 X91.756 Y106.619 E4.55075
G1 X91.752 Y106.652 E4.55230
G1 X93.402 Y107.186 E4.63355
G1 X95.122 Y107.192 E4.71416
G1 X98.898 Y107.114 E4.89108
G1 X98.933 Y107.343 E4.90194
G1 X99.999 Y107.048 E4.95375
G1 X100.987 Y107.321 E5.00177
G1 X101.030 Y107.113 E5.01176
G1 X104.876 Y107.192 E5.19199
G1 X106.596 Y107.186 E5.27257
G1 X108.247 Y106.652 E5.35384
G1 X108.242 Y106.619 E5.35541
G1 X108.671 Y106.511 E5.37614
G1 X110.740 Y105.840 E5.47803
G1 X110.735 Y105.801 E5.47986
G1 X111.262 Y105.669 E5.50532
G1 X113.233 Y105.029 E5.60244
G1 X113.227 Y104.983 E5.60459
G1 X113.852 Y104.826 E5.63477
G1 X115.810 Y104.191 E5.73122
G1 X115.806 Y104.167 E5.73233
G1 X117.627 Y103.767 E5.81972
G1 E3.81972 F2400.00000
G92 E0
G1 X117.075 Y97.003 F3600.000
G1 E2.00000 F2400.00000
G1 F3664.911
G1 X116.827 Y96.991 E2.01164
G1 X116.912 Y97.054 E2.01658
G1 X116.897 Y98.551 E2.08671
G1 X117.057 Y99.247 E2.12019
G1 X116.884 Y99.308 E2.12881
G1 X116.873 Y99.873 E2.15530
G1 X116.961 Y99.935 E2.16032
G1 X116.638 Y100.779 E2.20262
G1 X116.216 Y101.129 E2.22832
G1 X115.929 Y101.142 E2.24176
G1 X115.924 Y101.167 E2.24297
G1 X114.593 Y101.199 E2.30535
G1 X114.288 Y101.170 E2.31970
G1 X113.943 Y101.026 E2.33723
G1 X113.088 Y101.690 E2.38793
G1 X113.880 Y101.712 E2.42504
G1 X113.880 Y101.735 E2.42611
G1 X114.409 Y101.740 E2.45088
G1 X114.409 Y102.196 E2.47225
G1 X115.794 Y101.747 E2.54047
G1 X116.616 Y101.756 E2.57900
G1 X116.616 Y101.481 E2.59188
G1 X117.501 Y101.194 E2.63545
G1 X117.530 Y99.593 E2.71048
G1 X117.501 Y97.072 E2.82859
G1 X117.078 Y97.053 E2.84844
G1 X117.075 Y97.003 E2.85078
G1 E0.85078 F2400.00000
G92 E0
G1 X105.815 Y98.967 F3600.000
G1 E2.00000 F2400.00000
G1 F3664.911
G1 X105.815 Y95.336 E2.17010
G1 X103.024 Y94.780 E2.30340
G1 X103.628 Y96.240 E2.37741
G1 X102.907 Y96.248 E2.41120
G1 X102.907 Y98.744 E2.52815
G1 X102.504 Y98.744 E2.54704
G1 X101.704 Y100.241 E2.62656
G1 X101.354 Y99.341 E2.67183
G1 X101.055 Y99.460 E2.68689
G1 X101.006 Y99.407 E2.69027
G1 X99.999 Y99.407 E2.73743
G1 X99.999 Y97.198 E2.84092
G1 X98.281 Y97.197 E2.92143
G1 X98.281 Y96.262 E2.96523
G1 X97.091 Y96.248 E3.02094
G1 X97.091 Y98.744 E3.13790
G1 X96.272 Y98.745 E3.17628
G1 X95.299 Y98.689 E3.22195
G1 X95.329 Y97.486 E3.27837
G1 X94.184 Y98.688 E3.35618
G1 X94.184 Y95.335 E3.51327
G1 E1.51327 F2400.00000
G92 E0
G1 X97.043 Y93.515 F3600.000
G1 E2.00000 F2400.00000
G1 F3664.911
G1 X99.441 Y93.517 E2.11233
G1 X101.112 Y92.142 E2.21372
G1 X97.102 Y92.142 E2.40161
G1 X96.900 Y92.046 E2.41208
G1 X96.129 Y92.046 E2.44821
G1 X95.785 Y92.229 E2.46649
G1 X94.788 Y92.573 E2.51586
G1 X94.792 Y94.620 E2.61176
G1 X93.080 Y94.967 E2.69358
G1 X92.569 Y95.382 E2.72442
G1 X91.355 Y95.384 E2.78131
G1 X91.147 Y95.156 E2.79576
G1 X90.241 Y95.177 E2.83820
G1 X88.764 Y95.250 E2.90749
G1 X87.415 Y96.180 E2.98423
G1 X87.530 Y96.581 E3.00378
G1 X88.197 Y96.563 E3.03501
G1 X88.226 Y96.616 E3.03785
G1 X88.378 Y96.616 E3.04497
G1 X89.086 Y96.583 E3.07815
G1 X89.090 Y96.444 E3.08470
G1 X91.396 Y96.535 E3.19282
G1 X91.380 Y97.823 E3.25317
G1 X92.007 Y98.865 E3.31011
G1 X93.453 Y99.337 E3.38136
G1 X94.363 Y99.340 E3.42400
G1 X94.712 Y98.974 E3.44769
G1 X94.706 Y99.196 E3.45808
G1 X95.159 Y99.262 E3.47950
G1 X96.256 Y99.324 E3.53097
G1 X96.752 Y99.324 E3.55421
G1 X96.664 Y100.312 E3.60069
G1 X95.904 Y100.138 E3.63723
G1 X95.726 Y100.182 E3.64577
G1 X94.691 Y99.813 E3.69728
G1 X94.673 Y100.507 E3.72980
G1 X96.068 Y100.761 E3.79620
G1 X96.095 Y100.788 E3.79799
G1 X96.397 Y100.826 E3.81226
G1 X98.691 Y101.412 E3.92320
G1 X98.387 Y100.860 E3.95273
G1 X98.032 Y100.770 E3.96986
G1 X97.487 Y100.700 E3.99562
G1 X97.381 Y100.495 E4.00642
G1 X97.043 Y100.493 E4.02226
G1 X96.750 Y99.960 E4.05076
G1 X100.754 Y99.987 E4.23836
G1 X100.900 Y100.145 E4.24841
G1 X101.025 Y100.095 E4.25471
G1 X101.621 Y101.627 E4.33169
G1 X102.851 Y99.324 E4.45401
G1 X103.743 Y99.324 E4.49577
G1 X104.918 Y99.257 E4.55090
G1 X104.918 Y99.871 E4.57963
G1 X107.979 Y98.867 E4.73056
G1 X108.397 Y98.213 E4.76694
