; generated by Slic3r 1.3.1-dev (Build 18ddd3a36dc69d81fb9b7440498bff9e1dde8b7e) on 2022-10-04 at 19:23:34

; external perimeters extrusion width = 0.44mm (1.84mm^3/s)
; perimeters extrusion width = 0.56mm (4.75mm^3/s)
; infill extrusion width = 0.50mm (5.61mm^3/s)
; solid infill extrusion width = 0.56mm (1.58mm^3/s)
; top infill extrusion width = 0.56mm (1.19mm^3/s)
; support material extrusion width = 0.44mm (0.00mm^3/s)

M107
G92 E0
M190 S65 ; set bed temperature and wait for it to be reached
M104 S225 ; set temperature
G28 ; home all axes
G1 Z5 F5000 ; lift nozzle

; Filament gcode

M109 S225 ; set temperature and wait for it to be reached
G21 ; set units to millimeters
G90 ; use absolute coordinates
M82 ; use absolute distances for extrusion
G92 E0
G1 Z0.400 F3600.000
G1 E-2.00000 F2400.00000
G92 E0
G1 X84.009 Y91.752 F3600.000
G1 E2.00000 F2400.00000
G1 F1800.000
G1 X85.891 Y90.413 E2.27422
G1 X87.501 Y89.881 E2.47568
G1 X96.328 Y88.163 E3.54368
G1 X98.453 Y88.092 E3.79618
G1 X112.056 Y89.810 E5.42454
G1 X114.262 Y90.489 E5.69876
G1 X116.278 Y92.062 E6.00238
G1 X117.231 Y93.158 E6.17488
G1 X118.426 Y95.134 E6.44910
G1 X118.876 Y97.288 E6.71051
G1 X119.090 Y102.442 E7.32311
G1 X118.788 Y104.731 E7.59734
G1 X117.728 Y106.783 E7.87156
G1 X116.036 Y108.353 E8.14579
G1 X114.459 Y109.105 E8.35328
G1 X106.985 Y111.535 E9.28659
G1 X106.072 Y111.783 E9.39892
G1 X104.644 Y111.989 E9.57031
G1 X101.047 Y112.106 E9.99769
G1 X95.456 Y111.991 E10.66192
G1 X93.927 Y111.783 E10.84518
G1 X93.014 Y111.535 E10.95747
G1 X85.541 Y109.107 E11.89070
G1 X83.501 Y108.026 E12.16493
G1 X81.948 Y106.317 E12.43915
G1 X81.065 Y104.184 E12.71338
G1 X80.909 Y102.450 E12.92016
G1 X81.118 Y97.295 E13.53287
G1 X81.607 Y95.038 E13.80709
G1 X82.596 Y93.357 E14.03884
G1 X83.142 Y92.678 E14.14227
G1 X83.597 Y92.169 E14.22341
G1 X83.967 Y91.794 E14.28588
G1 E12.28588 F2400.00000
G92 E0
G1 X88.573 Y101.954 F3600.000
G1 E2.00000 F2400.00000
G1 F1800.000
G1 X88.573 Y102.656 E2.08333
G1 X90.001 Y103.120 E2.26168
G1 X90.001 Y102.525 E2.33231
G1 X90.271 Y102.462 E2.36523
G1 X90.309 Y101.586 E2.46946
G1 X90.080 Y101.511 E2.49804
G1 X90.301 Y101.366 E2.52947
G1 X90.585 Y101.340 E2.56333
G1 X90.585 Y102.719 E2.72720
G1 X91.429 Y102.714 E2.82750
G1 X91.429 Y103.585 E2.93093
G1 X92.858 Y104.048 E3.10928
G1 X92.858 Y102.605 E3.28070
G1 X92.930 Y102.603 E3.28930
G1 X92.975 Y102.685 E3.30040
G1 X93.271 Y102.596 E3.33714
G1 X93.352 Y102.594 E3.34666
G1 X93.716 Y103.226 E3.43331
G1 X94.026 Y103.167 E3.47083
G1 X94.072 Y103.231 E3.48014
G1 X93.945 Y103.690 E3.53673
G1 X94.286 Y103.595 E3.57881
G1 X94.286 Y104.514 E3.68793
G1 X95.186 Y104.806 E3.80030
G1 X95.634 Y104.920 E3.85518
G1 X95.714 Y104.918 E3.86478
G1 X95.714 Y103.548 E4.02746
G1 X97.143 Y104.033 E4.20659
G1 X97.143 Y104.886 E4.30787
G1 X98.571 Y104.078 F3600.000
G1 F1800.000
G1 X98.467 Y104.087 E4.32022
G1 X98.467 Y104.852 E4.41112
G1 X98.571 Y104.849 E4.42343
G1 X98.571 Y104.078 E4.51505
G1 X98.597 Y104.076 E4.51812
G1 X98.613 Y104.131 E4.52492
G1 X99.029 Y104.183 E4.57471
G1 X99.138 Y104.233 E4.58898
G1 X99.397 Y104.302 E4.62081
G1 X99.999 Y104.319 E4.69236
G1 X99.999 Y104.864 E4.75706
G1 X100.909 Y104.993 E4.86622
G1 X100.945 Y104.836 E4.88535
G1 X101.428 Y104.849 E4.94272
G1 X101.428 Y104.651 E4.96622
G1 X101.739 Y104.845 E5.00970
G1 X102.221 Y104.453 E5.08353
G1 X102.511 Y104.149 E5.13342
G1 X102.813 Y104.027 E5.17206
G1 X102.819 Y104.045 E5.17435
G1 X102.856 Y104.033 E5.17902
G1 X102.856 Y104.886 E5.28032
G1 X104.284 Y104.918 E5.45000
G1 X104.284 Y103.548 E5.61269
G1 X104.642 Y103.429 E5.65748
G1 X105.307 Y103.569 E5.73824
G1 X105.361 Y103.496 E5.74906
G1 X105.713 Y103.596 E5.79241
G1 X105.713 Y104.513 E5.90142
G1 X107.141 Y104.048 E6.07982
G1 X107.141 Y102.605 E6.25122
G1 X107.735 Y102.615 E6.32178
G1 X107.815 Y102.702 E6.33586
G1 X108.569 Y102.714 E6.42544
G1 X108.569 Y103.584 E6.52882
G1 X109.997 Y103.119 E6.70722
G1 X109.997 Y102.525 E6.77782
G1 X110.307 Y102.599 E6.81563
G1 X110.651 Y102.499 E6.85815
G1 X111.156 Y102.139 E6.93180
G1 X110.756 Y101.344 E7.03747
G1 X110.992 Y101.318 E7.06570
G1 X111.426 Y101.954 E7.15715
G1 X111.426 Y102.655 E7.24051
G1 E5.24051 F2400.00000
G92 E0
G1 X105.713 Y98.900 F3600.000
G1 E2.00000 F2400.00000
G1 F1800.000
G1 X105.713 Y96.779 E2.25189
G1 X105.006 Y96.778 E2.33575
G1 X104.669 Y96.509 E2.38693
G1 X104.284 Y96.433 E2.43358
G1 X104.284 Y99.701 E2.82177
G1 X102.856 Y99.701 E2.99140
G1 X102.856 Y96.142 E3.41410
G1 X101.428 Y95.851 E3.58722
G1 X101.428 Y96.257 E3.63547
G1 X101.244 Y95.813 E3.69249
G1 X101.428 Y95.851 E3.71473
G1 E1.71473 F2400.00000
G92 E0
G1 X98.571 Y96.281 F3600.000
G1 E2.00000 F2400.00000
G1 F1800.000
G1 X98.571 Y95.850 E2.05119
G1 X97.143 Y96.141 E2.22431
G1 X97.143 Y100.449 E2.73593
G1 X96.455 Y100.323 E2.81899
G1 X96.469 Y99.704 E2.89259
G1 X95.714 Y99.701 E2.98218
G1 X95.714 Y96.004 E3.42130
G1 X94.286 Y96.650 E3.60751
G1 X94.286 Y98.900 E3.87471
G1 X94.106 Y98.587 E3.91759
G1 X94.130 Y97.106 E4.09345
G1 X93.348 Y97.075 E4.18639
G1 X94.286 Y96.650 E4.30873
G1 E2.30873 F2400.00000
G92 E0
G1 X98.571 Y96.837 F3600.000
G1 E2.00000 F2400.00000
G1 F1800.000
G1 X98.571 Y100.051 E2.38172
G1 X99.999 Y100.060 E2.55136
G1 X99.999 Y96.838 E2.93406
G1 X101.428 Y96.839 E3.10370
G1 X101.428 Y99.843 E3.46046
M104 S220 ; set temperature
M140 S60 ; set bed temperature
G1 Z0.700 F3600.000
G1 X102.907 Y99.478 F3600.000
G1 F2075.803
G1 X102.907 Y96.379 E3.60566
G1 X101.609 Y96.115 E3.66770
G1 X102.001 Y97.062 E3.71572
G1 X99.999 Y97.060 E3.80952
G1 X99.999 Y99.838 E3.93964
G1 X98.031 Y99.824 E4.03187
G1 X97.860 Y100.351 E4.05781
G1 X97.091 Y100.214 E4.09436
G1 X97.091 Y96.379 E4.27403
G1 X97.182 Y95.769 F3600.000
G1 F2075.803
G1 X97.611 Y94.753 E4.32570
G1 X93.923 Y96.423 E4.51541
G1 X93.788 Y96.423 E4.52173
G1 X93.786 Y96.485 E4.52461
G1 X92.298 Y97.159 E4.60117
G1 X92.360 Y97.485 E4.61672
G1 X92.380 Y97.484 E4.61766
G1 X92.398 Y97.516 E4.61933
G1 X92.596 Y97.506 E4.62865
G1 X92.599 Y97.399 E4.63371
G1 X93.765 Y97.449 E4.68836
G1 X93.750 Y98.682 E4.74614
G1 X94.339 Y99.662 E4.79968
G1 X95.552 Y100.058 E4.85944
G1 X96.103 Y100.060 E4.88529
G1 X96.091 Y100.620 E4.91155
G1 X98.256 Y101.006 E5.01460
G1 X98.451 Y100.407 E5.04411
G1 X100.224 Y100.416 E5.12720
G1 X100.393 Y100.642 E5.14039
G1 X100.962 Y100.414 E5.16909
G1 X101.006 Y100.414 E5.17117
G1 X101.035 Y100.385 E5.17311
G1 X101.996 Y100.000 E5.22157
G1 X102.365 Y99.979 E5.23888
G1 X102.439 Y100.057 E5.24391
G1 X104.448 Y100.058 E5.33803
G1 X105.648 Y99.664 E5.39722
G1 X106.029 Y99.068 E5.43037
G1 X106.249 Y98.683 E5.45114
G1 X106.211 Y96.423 E5.55699
G1 X105.132 Y96.421 E5.60755
G1 X104.824 Y96.176 E5.62597
G1 X100.657 Y95.329 E5.82517
G1 X101.134 Y96.482 E5.88361
G1 X98.875 Y96.480 E5.98946
G1 X99.360 Y95.325 E6.04815
G1 X97.182 Y95.769 E6.15231
G1 E4.15231 F2400.00000
G92 E0
G1 X91.017 Y97.657 F3600.000
G1 E2.00000 F2400.00000
G1 F2075.803
G1 X90.950 Y97.622 E2.00355
G1 X91.017 Y97.657 E2.00711
G1 E0.00711 F2400.00000
G92 E0
G1 X89.296 Y102.025 F3600.000
G1 E2.00000 F2400.00000
G1 F2075.803
G1 X89.466 Y101.688 E2.01768
G1 X89.940 Y101.842 E2.04103
G1 X89.926 Y102.176 E2.05671
G1 X89.697 Y102.229 E2.06773
G1 X89.503 Y102.173 E2.07716
G1 X89.296 Y102.025 E2.08910
G1 X91.276 Y102.938 F3600.000
G1 F2075.803
G1 X91.276 Y103.301 E2.10610
G1 X94.184 Y104.246 E2.24935
G1 X94.184 Y103.855 E2.26768
G1 X94.509 Y103.763 E2.28352
G1 X94.544 Y103.803 E2.28605
G1 X95.327 Y103.654 E2.32338
G1 X97.091 Y104.250 E2.41063
G1 X97.091 Y104.664 E2.43001
G1 E0.43001 F2400.00000
G92 E0
G1 X99.999 Y104.639 F3600.000
G1 E2.00000 F2400.00000
G1 F2075.803
G1 X100.737 Y104.744 E2.03493
G1 X100.768 Y104.609 E2.04143
G1 X100.945 Y104.614 E2.04974
G1 X100.789 Y104.516 E2.05837
G1 X100.799 Y104.473 E2.06044
G1 X100.651 Y104.523 E2.06774
G1 X99.999 Y104.541 E2.09828
G1 X99.999 Y104.639 E2.10285
G1 E0.10285 F2400.00000
G92 E0
G1 X102.907 Y104.250 F3600.000
G1 E2.00000 F2400.00000
G1 F2075.803
G1 X102.907 Y104.664 E2.01939
G1 X104.340 Y104.697 E2.08654
G1 X104.752 Y104.592 E2.10644
G1 X105.815 Y104.246 E2.15882
G1 X105.815 Y103.856 E2.17712
G1 X106.374 Y104.014 E2.20432
G1 X106.216 Y103.447 E2.23193
G1 X106.355 Y103.473 E2.23856
G1 X106.729 Y102.834 E2.27325
G1 X107.125 Y102.960 E2.29269
G1 X107.198 Y102.829 E2.29969
G1 X107.639 Y102.839 E2.32036
G1 X107.716 Y102.923 E2.32571
G1 X108.723 Y102.938 E2.37289
G1 X108.723 Y103.301 E2.38986
G1 X110.058 Y101.842 F3600.000
G1 F2075.803
G1 X110.529 Y101.689 E2.41309
G1 X110.699 Y102.026 E2.43077
G1 X110.493 Y102.173 E2.44263
G1 X110.298 Y102.230 E2.45213
G1 X110.071 Y102.175 E2.46309
G1 X110.058 Y101.842 E2.47871
G1 E0.47871 F2400.00000
G92 E0
G1 X109.018 Y97.647 F3600.000
G1 E2.00000 F2400.00000
G1 F2075.803
G1 X109.049 Y97.622 E2.00187
G1 X108.982 Y97.657 E2.00542
G1 X109.018 Y97.647 E2.00717
G1 X111.222 Y97.524 F3600.000
G1 F2075.803
G1 X111.214 Y96.472 E2.05647
G1 X109.803 Y97.221 E2.13130
G1 X109.062 Y97.018 E2.16733
G1 X109.060 Y97.613 E2.19519
G1 X109.283 Y97.435 E2.20854
G1 X110.869 Y97.449 E2.28284
G1 X111.513 Y97.922 E2.32029
G1 X111.491 Y99.829 E2.40964
G1 X111.580 Y99.895 E2.41481
G1 X111.485 Y100.178 E2.42882
G1 X111.175 Y100.952 E2.46789
G1 X110.120 Y101.010 E2.51738
G1 X110.127 Y101.219 E2.52715
G1 X109.819 Y101.018 E2.54439
G1 X109.500 Y100.989 E2.55942
G1 X109.207 Y100.867 E2.57426
G1 X108.113 Y101.311 E2.62958
G1 X108.112 Y101.609 E2.64354
G1 X109.057 Y101.635 E2.68783
G1 X109.057 Y102.360 E2.72180
G1 X107.974 Y102.348 E2.77251
G1 X107.895 Y102.261 E2.77800
G1 X106.689 Y102.238 E2.83452
G1 X106.671 Y102.211 E2.83603
G1 X106.518 Y102.170 E2.84343
G1 X106.407 Y102.238 E2.84951
G1 X106.062 Y102.827 E2.88151
G1 X105.736 Y102.770 E2.89701
G1 X105.594 Y103.023 E2.91060
G1 X105.493 Y103.005 E2.91541
G1 X105.540 Y103.175 E2.92371
G1 X105.195 Y103.078 E2.94050
G1 X105.132 Y103.167 E2.94566
G1 X104.604 Y103.056 E2.97090
G1 X103.047 Y103.590 E3.04802
G1 X102.660 Y103.700 E3.06689
G1 X102.488 Y103.785 E3.07584
G1 X102.321 Y103.831 E3.08398
G1 X101.979 Y104.190 E3.10722
G1 X101.711 Y104.407 E3.12336
G1 X101.445 Y104.242 E3.13804
G1 X101.628 Y103.431 E3.17700
G1 X101.479 Y103.477 E3.18434
G1 X101.423 Y103.719 E3.19599
G1 X101.141 Y103.695 E3.20924
G1 X101.109 Y103.806 E3.21464
G1 X100.871 Y103.836 E3.22587
G1 X100.749 Y103.892 E3.23215
G1 X100.522 Y103.947 E3.24308
G1 X99.609 Y103.955 E3.28586
G1 X99.476 Y103.947 E3.29209
G1 X99.250 Y103.892 E3.30301
G1 X99.128 Y103.836 E3.30930
G1 X98.890 Y103.806 E3.32053
G1 X98.858 Y103.695 E3.32593
G1 X98.597 Y103.717 E3.33817
G1 X98.534 Y103.481 E3.34961
G1 X98.110 Y103.350 E3.37040
G1 X98.110 Y104.285 E3.41422
G1 X97.678 Y103.832 E3.44357
G1 X97.509 Y103.784 E3.45180
G1 X97.339 Y103.700 E3.46070
G1 X96.951 Y103.590 E3.47960
G1 X95.389 Y103.052 E3.55697
G1 X94.831 Y103.159 E3.58356
G1 X94.775 Y103.084 E3.58792
G1 X94.458 Y103.174 E3.60338
G1 X94.507 Y102.998 E3.61192
G1 X94.365 Y103.024 E3.61865
G1 X94.225 Y102.771 E3.63219
G1 X93.898 Y102.828 E3.64773
G1 X93.539 Y102.203 E3.68150
G1 X93.481 Y102.170 E3.68463
G1 X93.328 Y102.211 E3.69203
G1 X93.310 Y102.238 E3.69355
G1 X92.099 Y102.261 E3.75029
G1 X92.017 Y102.348 E3.75583
G1 X90.942 Y102.360 E3.80623
G1 X90.942 Y101.635 E3.84020
G1 X91.887 Y101.609 E3.88450
G1 X91.885 Y101.311 E3.89845
G1 X90.790 Y100.867 E3.95383
G1 X90.497 Y100.989 E3.96870
G1 X90.182 Y101.018 E3.98355
G1 X89.871 Y101.221 E4.00092
G1 X89.878 Y101.010 E4.01080
G1 X88.823 Y100.952 E4.06030
G1 X88.514 Y100.178 E4.09936
G1 X88.419 Y99.894 E4.11338
G1 X88.507 Y99.828 E4.11855
G1 X88.485 Y97.922 E4.20789
G1 X89.130 Y97.449 E4.24534
G1 X90.715 Y97.435 E4.31964
G1 X90.935 Y97.610 E4.33281
G1 X90.933 Y97.023 E4.36033
G1 X90.198 Y97.222 E4.39602
G1 X88.785 Y96.472 E4.47099
G1 X88.779 Y97.132 E4.50195
G1 X88.373 Y96.888 E4.52418
G1 X88.375 Y97.542 E4.55479
G1 X87.826 Y97.567 E4.58051
G1 X87.792 Y101.145 E4.74818
G1 X88.529 Y101.384 E4.78450
G1 X87.618 Y102.722 E4.86032
G1 X95.087 Y105.149 E5.22828
G1 X95.593 Y105.279 E5.25275
G1 X99.323 Y105.186 E5.42752
G1 X99.314 Y105.127 E5.43034
G1 X101.185 Y105.393 E5.51889
G1 X101.228 Y105.201 E5.52812
G1 X104.405 Y105.279 E5.67700
G1 X104.912 Y105.149 E5.70150
G1 X112.382 Y102.721 E6.06949
G1 X111.470 Y101.384 E6.14528
G1 X112.209 Y101.145 E6.18168
G1 X112.168 Y97.567 E6.34931
G1 X111.222 Y97.524 E6.39365
G1 Z1.000 F3600.000
G1 E4.39365 F2400.00000
G92 E0
G1 X100.565 Y97.754 F3600.000
G1 E2.00000 F2400.00000
G1 F2256.794
G1 X101.482 Y98.134 E2.04650
G1 X99.463 Y98.134 E2.14111
G1 X99.552 Y98.514 E2.15940
G1 X101.862 Y98.514 E2.26761
G1 X102.242 Y98.894 E2.29278
G1 X99.642 Y98.894 E2.41460
G1 X99.731 Y99.274 E2.43289
G1 X102.008 Y99.274 E2.53956
G1 X101.939 Y99.378 E2.54542
G1 X101.939 Y99.654 E2.55835
G1 X99.862 Y99.654 E2.65562
G1 X100.172 Y100.034 E2.67857
G1 X101.407 Y100.034 E2.73644
G1 X100.457 Y100.414 E2.78439
G1 E0.78439 F2400.00000
G92 E0
G1 X96.684 Y99.999 F3600.000
G1 E2.00000 F2400.00000
G1 F2256.794
G1 X96.681 Y100.139 E2.00657
G1 X97.860 Y100.351 E2.06266
G1 X97.974 Y99.999 E2.08000
G1 X96.684 Y99.999 E2.14040
G1 X96.696 Y99.482 E2.16459
G1 X95.645 Y99.478 E2.21385
G1 X94.720 Y99.176 E2.25945
G1 X94.329 Y98.527 E2.29494
G1 X94.352 Y97.091 E2.36226
G1 X97.978 Y97.091 E2.53210
G1 X97.182 Y95.769 F3600.000
G1 F2256.794
G1 X97.611 Y94.753 E2.58378
G1 X93.923 Y96.423 E2.77348
G1 X93.788 Y96.423 E2.77980
G1 X93.786 Y96.485 E2.78268
G1 X92.298 Y97.159 E2.85924
G1 X92.360 Y97.485 E2.87479
G1 X92.380 Y97.484 E2.87573
G1 X92.398 Y97.516 E2.87741
G1 X92.596 Y97.506 E2.88672
G1 X92.599 Y97.399 E2.89178
G1 X93.765 Y97.449 E2.94643
G1 X93.750 Y98.682 E3.00421
G1 X94.339 Y99.662 E3.05775
G1 X95.552 Y100.058 E3.11751
G1 X96.103 Y100.060 E3.14336
G1 X96.091 Y100.620 E3.16962
G1 X98.256 Y101.006 E3.27267
G1 X98.451 Y100.407 E3.30218
G1 X99.675 Y100.418 E3.35955
G1 X99.505 Y100.192 E3.37280
G1 X99.233 Y99.899 E3.39153
G1 X98.631 Y97.339 E3.51473
G1 X100.092 Y97.339 E3.58317
G1 X100.414 Y97.017 E3.60449
G1 X101.813 Y97.577 E3.67510
G1 X103.061 Y98.825 E3.75782
G1 X102.566 Y99.568 E3.79961
G1 X102.566 Y100.057 E3.82255
G1 X104.448 Y100.058 E3.91069
G1 X105.648 Y99.664 E3.96987
G1 X106.029 Y99.068 E4.00303
G1 X106.249 Y98.683 E4.02379
G1 X106.211 Y96.423 E4.12965
G1 X105.132 Y96.421 E4.18021
G1 X104.824 Y96.176 E4.19863
G1 X100.657 Y95.329 E4.39783
G1 X101.134 Y96.482 E4.45626
G1 X98.875 Y96.480 E4.56211
G1 X99.360 Y95.325 E4.62081
G1 X97.182 Y95.769 E4.72496
G1 E2.72496 F2400.00000
G92 E0
G1 X91.017 Y97.657 F3600.000
G1 E2.00000 F2400.00000
G1 F2256.794
G1 X90.950 Y97.622 E2.00355
G1 X91.017 Y97.657 E2.00711
G1 E0.00711 F2400.00000
G92 E0
G1 X89.296 Y102.025 F3600.000
G1 E2.00000 F2400.00000
G1 F2256.794
G1 X89.466 Y101.688 E2.01768
G1 X89.940 Y101.842 E2.04103
G1 X89.926 Y102.176 E2.05671
G1 X89.697 Y102.229 E2.06773
G1 X89.503 Y102.173 E2.07716
G1 X89.296 Y102.025 E2.08910
G1 X90.362 Y102.906 F3600.000
G1 F2256.794
G1 X90.362 Y102.670 E2.10019
G1 X89.763 Y102.809 E2.12901
G1 X90.064 Y102.906 E2.14384
G1 X90.362 Y102.906 E2.15781
G1 X92.844 Y102.906 F3600.000
G1 F2256.794
G1 X92.801 Y102.829 E2.16196
G1 X92.351 Y102.839 E2.18306
G1 X92.287 Y102.906 E2.18738
G1 X92.844 Y102.906 E2.21345
G1 X93.275 Y102.906 F3600.000
G1 F2256.794
G1 X93.235 Y102.836 E2.21724
G1 X93.018 Y102.906 E2.22790
G1 X93.275 Y102.906 E2.23993
G1 E0.23993 F2400.00000
G92 E0
G1 X105.646 Y97.091 F3600.000
G1 E2.00000 F2400.00000
G1 F2256.794
G1 X105.644 Y97.002 E2.00418
G1 X104.928 Y97.000 E2.03771
G1 X104.573 Y96.717 E2.05899
G1 X101.609 Y96.115 E2.20068
G1 X101.984 Y97.021 E2.24662
G1 X102.147 Y97.091 E2.25492
G1 X105.646 Y97.091 E2.41885
G1 E0.41885 F2400.00000
G92 E0
G1 X109.018 Y97.647 F3600.000
G1 E2.00000 F2400.00000
G1 F2256.794
G1 X109.049 Y97.622 E2.00187
G1 X108.982 Y97.657 E2.00542
G1 X109.018 Y97.647 E2.00717
G1 X111.222 Y97.524 F3600.000
G1 F2256.794
G1 X111.214 Y96.472 E2.05647
G1 X109.803 Y97.221 E2.13130
G1 X109.062 Y97.018 E2.16733
G1 X109.060 Y97.613 E2.19519
G1 X109.283 Y97.435 E2.20854
G1 X110.869 Y97.449 E2.28284
G1 X111.513 Y97.922 E2.32029
G1 X111.491 Y99.829 E2.40964
G1 X111.580 Y99.895 E2.41481
